(Created with emc2b post processor 2017/06/08 22:48)
(tool change to 0.8 mm End Mill)
T1 M06 G43
G17 G90 G21
G00 Z5 S7000 M03
X2.431 Y29.951 
Z2 
G01 Z-0.3 F60 
X1.728 Y29.951  
X1.728 Y29.748  
X2.431 Y29.748  
X2.431 Y29.951  
G00 Z5 
X2.631 Y30.151 
Z2 
G01 Z-0.3  
X1.528 Y30.151  
X1.528 Y29.548  
X2.631 Y29.548  
X2.631 Y30.151  
G00 Z5 
X2.831 Y30.351 
Z2 
G01 Z-0.3  
X1.328 Y30.351  
X1.328 Y29.348  
X2.831 Y29.348  
X2.831 Y30.351  
G00 Z5 
X3.031 Y30.551 
Z2 
G01 Z-0.3  
X1.128 Y30.551  
X1.128 Y29.148  
X3.031 Y29.148  
X3.031 Y30.551  
G00 Z5 
X2.431 Y29.951 
Z1.7 
G01 Z-0.6  
X1.728 Y29.951  
X1.728 Y29.748  
X2.431 Y29.748  
X2.431 Y29.951  
G00 Z5 
X2.631 Y30.151 
Z1.7 
G01 Z-0.6  
X1.528 Y30.151  
X1.528 Y29.548  
X2.631 Y29.548  
X2.631 Y30.151  
G00 Z5 
X2.831 Y30.351 
Z1.7 
G01 Z-0.6  
X1.328 Y30.351  
X1.328 Y29.348  
X2.831 Y29.348  
X2.831 Y30.351  
G00 Z5 
X3.031 Y30.551 
Z1.7 
G01 Z-0.6  
X1.128 Y30.551  
X1.128 Y29.148  
X3.031 Y29.148  
X3.031 Y30.551  
G00 Z5 
X8.731 Y29.951 S7000 M03
Z2 
G01 Z-0.3  
X7.228 Y29.951  
X7.228 Y29.748  
X8.731 Y29.748  
X8.731 Y29.951  
G00 Z5 
X8.931 Y30.151 
Z2 
G01 Z-0.3  
X7.028 Y30.151  
X7.028 Y29.548  
X8.931 Y29.548  
X8.931 Y30.151  
G00 Z5 
X9.131 Y30.351 
Z2 
G01 Z-0.3  
X6.828 Y30.351  
X6.828 Y29.348  
X9.131 Y29.348  
X9.131 Y30.351  
G00 Z5 
X9.331 Y30.551 
Z2 
G01 Z-0.3  
X6.628 Y30.551  
X6.628 Y29.148  
X9.331 Y29.148  
X9.331 Y30.551  
G00 Z5 
X8.731 Y29.951 
Z1.7 
G01 Z-0.6  
X7.228 Y29.951  
X7.228 Y29.748  
X8.731 Y29.748  
X8.731 Y29.951  
G00 Z5 
X8.931 Y30.151 
Z1.7 
G01 Z-0.6  
X7.028 Y30.151  
X7.028 Y29.548  
X8.931 Y29.548  
X8.931 Y30.151  
G00 Z5 
X9.131 Y30.351 
Z1.7 
G01 Z-0.6  
X6.828 Y30.351  
X6.828 Y29.348  
X9.131 Y29.348  
X9.131 Y30.351  
G00 Z5 
X9.331 Y30.551 
Z1.7 
G01 Z-0.6  
X6.628 Y30.551  
X6.628 Y29.148  
X9.331 Y29.148  
X9.331 Y30.551  
G00 Z5 
X2.431 Y21.051 S7000 M03
Z2 
G01 Z-0.3  
X1.728 Y21.051  
X1.728 Y20.848  
X2.431 Y20.848  
X2.431 Y21.051  
G00 Z5 
X2.631 Y21.251 
Z2 
G01 Z-0.3  
X1.528 Y21.251  
X1.528 Y20.648  
X2.631 Y20.648  
X2.631 Y21.251  
G00 Z5 
X2.831 Y21.451 
Z2 
G01 Z-0.3  
X1.328 Y21.451  
X1.328 Y20.448  
X2.831 Y20.448  
X2.831 Y21.451  
G00 Z5 
X3.031 Y21.651 
Z2 
G01 Z-0.3  
X1.128 Y21.651  
X1.128 Y20.248  
X3.031 Y20.248  
X3.031 Y21.651  
G00 Z5 
X2.431 Y21.051 
Z1.7 
G01 Z-0.6  
X1.728 Y21.051  
X1.728 Y20.848  
X2.431 Y20.848  
X2.431 Y21.051  
G00 Z5 
X2.631 Y21.251 
Z1.7 
G01 Z-0.6  
X1.528 Y21.251  
X1.528 Y20.648  
X2.631 Y20.648  
X2.631 Y21.251  
G00 Z5 
X2.831 Y21.451 
Z1.7 
G01 Z-0.6  
X1.328 Y21.451  
X1.328 Y20.448  
X2.831 Y20.448  
X2.831 Y21.451  
G00 Z5 
X3.031 Y21.651 
Z1.7 
G01 Z-0.6  
X1.128 Y21.651  
X1.128 Y20.248  
X3.031 Y20.248  
X3.031 Y21.651  
G00 Z5 
X8.731 Y21.051 S7000 M03
Z2 
G01 Z-0.3  
X7.228 Y21.051  
X7.228 Y20.848  
X8.731 Y20.848  
X8.731 Y21.051  
G00 Z5 
X8.931 Y21.251 
Z2 
G01 Z-0.3  
X7.028 Y21.251  
X7.028 Y20.648  
X8.931 Y20.648  
X8.931 Y21.251  
G00 Z5 
X9.131 Y21.451 
Z2 
G01 Z-0.3  
X6.828 Y21.451  
X6.828 Y20.448  
X9.131 Y20.448  
X9.131 Y21.451  
G00 Z5 
X9.331 Y21.651 
Z2 
G01 Z-0.3  
X6.628 Y21.651  
X6.628 Y20.248  
X9.331 Y20.248  
X9.331 Y21.651  
G00 Z5 
X8.731 Y21.051 
Z1.7 
G01 Z-0.6  
X7.228 Y21.051  
X7.228 Y20.848  
X8.731 Y20.848  
X8.731 Y21.051  
G00 Z5 
X8.931 Y21.251 
Z1.7 
G01 Z-0.6  
X7.028 Y21.251  
X7.028 Y20.648  
X8.931 Y20.648  
X8.931 Y21.251  
G00 Z5 
X9.131 Y21.451 
Z1.7 
G01 Z-0.6  
X6.828 Y21.451  
X6.828 Y20.448  
X9.131 Y20.448  
X9.131 Y21.451  
G00 Z5 
X9.331 Y21.651 
Z1.7 
G01 Z-0.6  
X6.628 Y21.651  
X6.628 Y20.248  
X9.331 Y20.248  
X9.331 Y21.651  
G00 Z5 
X10.631 Y33.271 S7000 M03
Z2 
G01 Z-0.3  
X10.328 Y33.271  
X10.328 Y32.767  
X10.631 Y32.767  
X10.631 Y33.271  
G00 Z5 
X10.831 Y33.471 
Z2 
G01 Z-0.3  
X10.128 Y33.471  
X10.128 Y32.568  
X10.831 Y32.568  
X10.831 Y33.471  
G00 Z5 
X10.631 Y33.271 
Z1.7 
G01 Z-0.6  
X10.328 Y33.271  
X10.328 Y32.767  
X10.631 Y32.767  
X10.631 Y33.271  
G00 Z5 
X10.831 Y33.471 
Z1.7 
G01 Z-0.6  
X10.128 Y33.471  
X10.128 Y32.568  
X10.831 Y32.568  
X10.831 Y33.471  
G00 Z5 
X12.531 Y33.271 S7000 M03
Z2 
G01 Z-0.3  
X12.228 Y33.271  
X12.228 Y32.767  
X12.531 Y32.767  
X12.531 Y33.271  
G00 Z5 
X12.731 Y33.471 
Z2 
G01 Z-0.3  
X12.028 Y33.471  
X12.028 Y32.568  
X12.731 Y32.568  
X12.731 Y33.471  
G00 Z5 
X12.531 Y33.271 
Z1.7 
G01 Z-0.6  
X12.228 Y33.271  
X12.228 Y32.767  
X12.531 Y32.767  
X12.531 Y33.271  
G00 Z5 
X12.731 Y33.471 
Z1.7 
G01 Z-0.6  
X12.028 Y33.471  
X12.028 Y32.568  
X12.731 Y32.568  
X12.731 Y33.471  
G00 Z5 
X11.431 Y30.211 S7000 M03
Z2 
G01 Z-0.3  
X11.428 Y30.211  
X11.428 Y30.208  
G03 X11.431 Y30.211 I0.001 J0.001  
G00 Z5 
X11.631 Y30.411 
Z2 
G01 Z-0.3  
X11.228 Y30.411  
X11.228 Y30.008  
X11.631 Y30.008  
X11.631 Y30.411  
G00 Z5 
X11.431 Y30.211 
Z1.7 
G01 Z-0.6  
X11.428 Y30.211  
X11.428 Y30.208  
G03 X11.431 Y30.211 I0.001 J0.001  
G00 Z5 
X11.631 Y30.411 
Z1.7 
G01 Z-0.6  
X11.228 Y30.411  
X11.228 Y30.008  
X11.631 Y30.008  
X11.631 Y30.411  
G00 Z5 
X11.431 Y28.211 S7000 M03
Z2 
G01 Z-0.3  
G03 X11.428 Y28.208 I-0.001 J-0.001  
X11.431 Y28.211 I0.001 J0.001  
G00 Z5 
X11.631 Y28.411 
Z2 
G01 Z-0.3  
X11.228 Y28.411  
X11.228 Y28.008  
X11.631 Y28.008  
X11.631 Y28.411  
G00 Z5 
X11.431 Y28.211 
Z1.7 
G01 Z-0.6  
G03 X11.428 Y28.208 I-0.001 J-0.001  
X11.431 Y28.211 I0.001 J0.001  
G00 Z5 
X11.631 Y28.411 
Z1.7 
G01 Z-0.6  
X11.228 Y28.411  
X11.228 Y28.008  
X11.631 Y28.008  
X11.631 Y28.411  
G00 Z5 
X11.681 Y21.421 S7000 M03
Z2 
G01 Z-0.3  
X11.178 Y21.421  
X11.178 Y21.118  
X11.681 Y21.118  
X11.681 Y21.421  
G00 Z5 
X11.881 Y21.621 
Z2 
G01 Z-0.3  
X10.978 Y21.621  
X10.978 Y20.918  
X11.881 Y20.918  
X11.881 Y21.621  
G00 Z5 
X11.681 Y21.421 
Z1.7 
G01 Z-0.6  
X11.178 Y21.421  
X11.178 Y21.118  
X11.681 Y21.118  
X11.681 Y21.421  
G00 Z5 
X11.881 Y21.621 
Z1.7 
G01 Z-0.6  
X10.978 Y21.621  
X10.978 Y20.918  
X11.881 Y20.918  
X11.881 Y21.621  
G00 Z5 
X11.681 Y19.521 S7000 M03
Z2 
G01 Z-0.3  
X11.178 Y19.521  
X11.178 Y19.218  
X11.681 Y19.218  
X11.681 Y19.521  
G00 Z5 
X11.881 Y19.721 
Z2 
G01 Z-0.3  
X10.978 Y19.721  
X10.978 Y19.018  
X11.881 Y19.018  
X11.881 Y19.721  
G00 Z5 
X11.681 Y19.521 
Z1.7 
G01 Z-0.6  
X11.178 Y19.521  
X11.178 Y19.218  
X11.681 Y19.218  
X11.681 Y19.521  
G00 Z5 
X11.881 Y19.721 
Z1.7 
G01 Z-0.6  
X10.978 Y19.721  
X10.978 Y19.018  
X11.881 Y19.018  
X11.881 Y19.721  
G00 Z5 
X14.071 Y30.361 S7000 M03
Z2 
G01 Z-0.3  
X13.868 Y30.361  
X13.868 Y30.158  
X14.071 Y30.158  
X14.071 Y30.361  
G00 Z5 
X14.271 Y30.561 
Z2 
G01 Z-0.3  
X13.668 Y30.561  
X13.668 Y29.958  
X14.271 Y29.958  
X14.271 Y30.561  
G00 Z5 
X14.071 Y30.361 
Z1.7 
G01 Z-0.6  
X13.868 Y30.361  
X13.868 Y30.158  
X14.071 Y30.158  
X14.071 Y30.361  
G00 Z5 
X14.271 Y30.561 
Z1.7 
G01 Z-0.6  
X13.668 Y30.561  
X13.668 Y29.958  
X14.271 Y29.958  
X14.271 Y30.561  
G00 Z5 
X14.071 Y28.261 S7000 M03
Z2 
G01 Z-0.3  
X13.868 Y28.261  
X13.868 Y28.058  
X14.071 Y28.058  
X14.071 Y28.261  
G00 Z5 
X14.271 Y28.461 
Z2 
G01 Z-0.3  
X13.668 Y28.461  
X13.668 Y27.858  
X14.271 Y27.858  
X14.271 Y28.461  
G00 Z5 
X14.071 Y28.261 
Z1.7 
G01 Z-0.6  
X13.868 Y28.261  
X13.868 Y28.058  
X14.071 Y28.058  
X14.071 Y28.261  
G00 Z5 
X14.271 Y28.461 
Z1.7 
G01 Z-0.6  
X13.668 Y28.461  
X13.668 Y27.858  
X14.271 Y27.858  
X14.271 Y28.461  
G00 Z5 
X16.761 Y30.311 S7000 M03
Z2 
G01 Z-0.3  
X16.258 Y30.311  
X16.258 Y30.008  
X16.761 Y30.008  
X16.761 Y30.311  
G00 Z5 
X16.961 Y30.511 
Z2 
G01 Z-0.3  
X16.058 Y30.511  
X16.058 Y29.808  
X16.961 Y29.808  
X16.961 Y30.511  
G00 Z5 
X16.761 Y30.311 
Z1.7 
G01 Z-0.6  
X16.258 Y30.311  
X16.258 Y30.008  
X16.761 Y30.008  
X16.761 Y30.311  
G00 Z5 
X16.961 Y30.511 
Z1.7 
G01 Z-0.6  
X16.058 Y30.511  
X16.058 Y29.808  
X16.961 Y29.808  
X16.961 Y30.511  
G00 Z5 
X16.761 Y28.411 S7000 M03
Z2 
G01 Z-0.3  
X16.258 Y28.411  
X16.258 Y28.108  
X16.761 Y28.108  
X16.761 Y28.411  
G00 Z5 
X16.961 Y28.611 
Z2 
G01 Z-0.3  
X16.058 Y28.611  
X16.058 Y27.908  
X16.961 Y27.908  
X16.961 Y28.611  
G00 Z5 
X16.761 Y28.411 
Z1.7 
G01 Z-0.6  
X16.258 Y28.411  
X16.258 Y28.108  
X16.761 Y28.108  
X16.761 Y28.411  
G00 Z5 
X16.961 Y28.611 
Z1.7 
G01 Z-0.6  
X16.058 Y28.611  
X16.058 Y27.908  
X16.961 Y27.908  
X16.961 Y28.611  
G00 Z5 
X14.441 Y23.111 S7000 M03
Z2 
G01 Z-0.3  
X14.138 Y23.111  
X14.138 Y22.608  
X14.441 Y22.608  
X14.441 Y23.111  
G00 Z5 
X14.641 Y23.311 
Z2 
G01 Z-0.3  
X13.938 Y23.311  
X13.938 Y22.408  
X14.641 Y22.408  
X14.641 Y23.311  
G00 Z5 
X14.441 Y23.111 
Z1.7 
G01 Z-0.6  
X14.138 Y23.111  
X14.138 Y22.608  
X14.441 Y22.608  
X14.441 Y23.111  
G00 Z5 
X14.641 Y23.311 
Z1.7 
G01 Z-0.6  
X13.938 Y23.311  
X13.938 Y22.408  
X14.641 Y22.408  
X14.641 Y23.311  
G00 Z5 
X16.341 Y23.111 S7000 M03
Z2 
G01 Z-0.3  
X16.038 Y23.111  
X16.038 Y22.608  
X16.341 Y22.608  
X16.341 Y23.111  
G00 Z5 
X16.541 Y23.311 
Z2 
G01 Z-0.3  
X15.838 Y23.311  
X15.838 Y22.408  
X16.541 Y22.408  
X16.541 Y23.311  
G00 Z5 
X16.341 Y23.111 
Z1.7 
G01 Z-0.6  
X16.038 Y23.111  
X16.038 Y22.608  
X16.341 Y22.608  
X16.341 Y23.111  
G00 Z5 
X16.541 Y23.311 
Z1.7 
G01 Z-0.6  
X15.838 Y23.311  
X15.838 Y22.408  
X16.541 Y22.408  
X16.541 Y23.311  
G00 Z5 
X19.301 Y23.326 S7000 M03
Z2 
G01 Z-0.3  
X18.798 Y23.326  
X18.798 Y23.023  
X19.301 Y23.023  
X19.301 Y23.326  
G00 Z5 
X19.501 Y23.526 
Z2 
G01 Z-0.3  
X18.598 Y23.526  
X18.598 Y22.823  
X19.501 Y22.823  
X19.501 Y23.526  
G00 Z5 
X19.301 Y23.326 
Z1.7 
G01 Z-0.6  
X18.798 Y23.326  
X18.798 Y23.023  
X19.301 Y23.023  
X19.301 Y23.326  
G00 Z5 
X19.501 Y23.526 
Z1.7 
G01 Z-0.6  
X18.598 Y23.526  
X18.598 Y22.823  
X19.501 Y22.823  
X19.501 Y23.526  
G00 Z5 
X19.301 Y21.426 S7000 M03
Z2 
G01 Z-0.3  
X18.798 Y21.426  
X18.798 Y21.123  
X19.301 Y21.123  
X19.301 Y21.426  
G00 Z5 
X19.501 Y21.626 
Z2 
G01 Z-0.3  
X18.598 Y21.626  
X18.598 Y20.923  
X19.501 Y20.923  
X19.501 Y21.626  
G00 Z5 
X19.301 Y21.426 
Z1.7 
G01 Z-0.6  
X18.798 Y21.426  
X18.798 Y21.123  
X19.301 Y21.123  
X19.301 Y21.426  
G00 Z5 
X19.501 Y21.626 
Z1.7 
G01 Z-0.6  
X18.598 Y21.626  
X18.598 Y20.923  
X19.501 Y20.923  
X19.501 Y21.626  
G00 Z5 
X19.151 Y19.566 S7000 M03
Z2 
G01 Z-0.3  
X18.948 Y19.566  
X18.948 Y19.363  
X19.151 Y19.363  
X19.151 Y19.566  
G00 Z5 
X19.351 Y19.766 
Z2 
G01 Z-0.3  
X18.748 Y19.766  
X18.748 Y19.163  
X19.351 Y19.163  
X19.351 Y19.766  
G00 Z5 
X19.151 Y19.566 
Z1.7 
G01 Z-0.6  
X18.948 Y19.566  
X18.948 Y19.363  
X19.151 Y19.363  
X19.151 Y19.566  
G00 Z5 
X19.351 Y19.766 
Z1.7 
G01 Z-0.6  
X18.748 Y19.766  
X18.748 Y19.163  
X19.351 Y19.163  
X19.351 Y19.766  
G00 Z5 
X19.151 Y17.466 S7000 M03
Z2 
G01 Z-0.3  
X18.948 Y17.466  
X18.948 Y17.263  
X19.151 Y17.263  
X19.151 Y17.466  
G00 Z5 
X19.351 Y17.666 
Z2 
G01 Z-0.3  
X18.748 Y17.666  
X18.748 Y17.063  
X19.351 Y17.063  
X19.351 Y17.666  
G00 Z5 
X19.151 Y17.466 
Z1.7 
G01 Z-0.6  
X18.948 Y17.466  
X18.948 Y17.263  
X19.151 Y17.263  
X19.151 Y17.466  
G00 Z5 
X19.351 Y17.666 
Z1.7 
G01 Z-0.6  
X18.748 Y17.666  
X18.748 Y17.063  
X19.351 Y17.063  
X19.351 Y17.666  
G00 Z5 
X16.981 Y14.221 S7000 M03
Z2 
G01 Z-0.3  
X16.678 Y14.221  
X16.678 Y13.718  
X16.981 Y13.718  
X16.981 Y14.221  
G00 Z5 
X17.181 Y14.421 
Z2 
G01 Z-0.3  
X16.478 Y14.421  
X16.478 Y13.518  
X17.181 Y13.518  
X17.181 Y14.421  
G00 Z5 
X16.981 Y14.221 
Z1.7 
G01 Z-0.6  
X16.678 Y14.221  
X16.678 Y13.718  
X16.981 Y13.718  
X16.981 Y14.221  
G00 Z5 
X17.181 Y14.421 
Z1.7 
G01 Z-0.6  
X16.478 Y14.421  
X16.478 Y13.518  
X17.181 Y13.518  
X17.181 Y14.421  
G00 Z5 
X18.881 Y14.221 S7000 M03
Z2 
G01 Z-0.3  
X18.578 Y14.221  
X18.578 Y13.718  
X18.881 Y13.718  
X18.881 Y14.221  
G00 Z5 
X19.081 Y14.421 
Z2 
G01 Z-0.3  
X18.378 Y14.421  
X18.378 Y13.518  
X19.081 Y13.518  
X19.081 Y14.421  
G00 Z5 
X18.881 Y14.221 
Z1.7 
G01 Z-0.6  
X18.578 Y14.221  
X18.578 Y13.718  
X18.881 Y13.718  
X18.881 Y14.221  
G00 Z5 
X19.081 Y14.421 
Z1.7 
G01 Z-0.6  
X18.378 Y14.421  
X18.378 Y13.518  
X19.081 Y13.518  
X19.081 Y14.421  
G00 Z5 
X21.426 Y14.221 S7000 M03
Z2 
G01 Z-0.3  
X21.123 Y14.221  
X21.123 Y13.718  
X21.426 Y13.718  
X21.426 Y14.221  
G00 Z5 
X21.626 Y14.421 
Z2 
G01 Z-0.3  
X20.923 Y14.421  
X20.923 Y13.518  
X21.626 Y13.518  
X21.626 Y14.421  
G00 Z5 
X21.426 Y14.221 
Z1.7 
G01 Z-0.6  
X21.123 Y14.221  
X21.123 Y13.718  
X21.426 Y13.718  
X21.426 Y14.221  
G00 Z5 
X21.626 Y14.421 
Z1.7 
G01 Z-0.6  
X20.923 Y14.421  
X20.923 Y13.518  
X21.626 Y13.518  
X21.626 Y14.421  
G00 Z5 
X23.326 Y14.221 S7000 M03
Z2 
G01 Z-0.3  
X23.023 Y14.221  
X23.023 Y13.718  
X23.326 Y13.718  
X23.326 Y14.221  
G00 Z5 
X23.526 Y14.421 
Z2 
G01 Z-0.3  
X22.823 Y14.421  
X22.823 Y13.518  
X23.526 Y13.518  
X23.526 Y14.421  
G00 Z5 
X23.326 Y14.221 
Z1.7 
G01 Z-0.6  
X23.023 Y14.221  
X23.023 Y13.718  
X23.326 Y13.718  
X23.326 Y14.221  
G00 Z5 
X23.526 Y14.421 
Z1.7 
G01 Z-0.6  
X22.823 Y14.421  
X22.823 Y13.518  
X23.526 Y13.518  
X23.526 Y14.421  
G00 Z5 
X24.381 Y23.326 S7000 M03
Z2 
G01 Z-0.3  
X23.878 Y23.326  
X23.878 Y23.023  
X24.381 Y23.023  
X24.381 Y23.326  
G00 Z5 
X24.581 Y23.526 
Z2 
G01 Z-0.3  
X23.678 Y23.526  
X23.678 Y22.823  
X24.581 Y22.823  
X24.581 Y23.526  
G00 Z5 
X24.381 Y23.326 
Z1.7 
G01 Z-0.6  
X23.878 Y23.326  
X23.878 Y23.023  
X24.381 Y23.023  
X24.381 Y23.326  
G00 Z5 
X24.581 Y23.526 
Z1.7 
G01 Z-0.6  
X23.678 Y23.526  
X23.678 Y22.823  
X24.581 Y22.823  
X24.581 Y23.526  
G00 Z5 
X24.381 Y21.426 S7000 M03
Z2 
G01 Z-0.3  
X23.878 Y21.426  
X23.878 Y21.123  
X24.381 Y21.123  
X24.381 Y21.426  
G00 Z5 
X24.581 Y21.626 
Z2 
G01 Z-0.3  
X23.678 Y21.626  
X23.678 Y20.923  
X24.581 Y20.923  
X24.581 Y21.626  
G00 Z5 
X24.381 Y21.426 
Z1.7 
G01 Z-0.6  
X23.878 Y21.426  
X23.878 Y21.123  
X24.381 Y21.123  
X24.381 Y21.426  
G00 Z5 
X24.581 Y21.626 
Z1.7 
G01 Z-0.6  
X23.678 Y21.626  
X23.678 Y20.923  
X24.581 Y20.923  
X24.581 Y21.626  
G00 Z5 
X24.231 Y19.566 S7000 M03
Z2 
G01 Z-0.3  
X24.028 Y19.566  
X24.028 Y19.363  
X24.231 Y19.363  
X24.231 Y19.566  
G00 Z5 
X24.431 Y19.766 
Z2 
G01 Z-0.3  
X23.828 Y19.766  
X23.828 Y19.163  
X24.431 Y19.163  
X24.431 Y19.766  
G00 Z5 
X24.231 Y19.566 
Z1.7 
G01 Z-0.6  
X24.028 Y19.566  
X24.028 Y19.363  
X24.231 Y19.363  
X24.231 Y19.566  
G00 Z5 
X24.431 Y19.766 
Z1.7 
G01 Z-0.6  
X23.828 Y19.766  
X23.828 Y19.163  
X24.431 Y19.163  
X24.431 Y19.766  
G00 Z5 
X24.231 Y17.466 S7000 M03
Z2 
G01 Z-0.3  
X24.028 Y17.466  
X24.028 Y17.263  
X24.231 Y17.263  
X24.231 Y17.466  
G00 Z5 
X24.431 Y17.666 
Z2 
G01 Z-0.3  
X23.828 Y17.666  
X23.828 Y17.063  
X24.431 Y17.063  
X24.431 Y17.666  
G00 Z5 
X24.231 Y17.466 
Z1.7 
G01 Z-0.6  
X24.028 Y17.466  
X24.028 Y17.263  
X24.231 Y17.263  
X24.231 Y17.466  
G00 Z5 
X24.431 Y17.666 
Z1.7 
G01 Z-0.6  
X23.828 Y17.666  
X23.828 Y17.063  
X24.431 Y17.063  
X24.431 Y17.666  
G00 Z5 
X26.986 Y25.185 S7000 M03
Z2 
G01 Z-0.3  
X18.733 Y25.185  
X18.733 Y25.133  
X26.986 Y25.133  
X26.986 Y25.185  
G00 Z5 
Z1.7 
G01 Z-0.6  
X18.733 Y25.185  
X18.733 Y25.133  
X26.986 Y25.133  
X26.986 Y25.185  
G00 Z5 
X26.986 Y33.286 S7000 M03
Z2 
G01 Z-0.3  
X18.733 Y33.286  
X18.733 Y33.235  
X26.986 Y33.235  
X26.986 Y33.286  
G00 Z5 
Z1.7 
G01 Z-0.6  
X18.733 Y33.286  
X18.733 Y33.235  
X26.986 Y33.235  
X26.986 Y33.286  
G00 Z5 
X15.386 Y36.261 S7000 M03
Z2 
G01 Z-0.3  
X15.083 Y36.261  
X15.083 Y35.758  
X15.386 Y35.758  
X15.386 Y36.261  
G00 Z5 
X15.586 Y36.461 
Z2 
G01 Z-0.3  
X14.883 Y36.461  
X14.883 Y35.558  
X15.586 Y35.558  
X15.586 Y36.461  
G00 Z5 
X15.386 Y36.261 
Z1.7 
G01 Z-0.6  
X15.083 Y36.261  
X15.083 Y35.758  
X15.386 Y35.758  
X15.386 Y36.261  
G00 Z5 
X15.586 Y36.461 
Z1.7 
G01 Z-0.6  
X14.883 Y36.461  
X14.883 Y35.558  
X15.586 Y35.558  
X15.586 Y36.461  
G00 Z5 
X17.286 Y36.261 S7000 M03
Z2 
G01 Z-0.3  
X16.983 Y36.261  
X16.983 Y35.758  
X17.286 Y35.758  
X17.286 Y36.261  
G00 Z5 
X17.486 Y36.461 
Z2 
G01 Z-0.3  
X16.783 Y36.461  
X16.783 Y35.558  
X17.486 Y35.558  
X17.486 Y36.461  
G00 Z5 
X17.286 Y36.261 
Z1.7 
G01 Z-0.6  
X16.983 Y36.261  
X16.983 Y35.758  
X17.286 Y35.758  
X17.286 Y36.261  
G00 Z5 
X17.486 Y36.461 
Z1.7 
G01 Z-0.6  
X16.783 Y36.461  
X16.783 Y35.558  
X17.486 Y35.558  
X17.486 Y36.461  
G00 Z5 
X19.521 Y37.081 S7000 M03
Z2 
G01 Z-0.3  
X19.218 Y37.081  
X19.218 Y36.578  
X19.521 Y36.578  
X19.521 Y37.081  
G00 Z5 
X19.721 Y37.281 
Z2 
G01 Z-0.3  
X19.018 Y37.281  
X19.018 Y36.378  
X19.721 Y36.378  
X19.721 Y37.281  
G00 Z5 
X19.521 Y37.081 
Z1.7 
G01 Z-0.6  
X19.218 Y37.081  
X19.218 Y36.578  
X19.521 Y36.578  
X19.521 Y37.081  
G00 Z5 
X19.721 Y37.281 
Z1.7 
G01 Z-0.6  
X19.018 Y37.281  
X19.018 Y36.378  
X19.721 Y36.378  
X19.721 Y37.281  
G00 Z5 
X21.421 Y37.081 S7000 M03
Z2 
G01 Z-0.3  
X21.118 Y37.081  
X21.118 Y36.578  
X21.421 Y36.578  
X21.421 Y37.081  
G00 Z5 
X21.621 Y37.281 
Z2 
G01 Z-0.3  
X20.918 Y37.281  
X20.918 Y36.378  
X21.621 Y36.378  
X21.621 Y37.281  
G00 Z5 
X21.421 Y37.081 
Z1.7 
G01 Z-0.6  
X21.118 Y37.081  
X21.118 Y36.578  
X21.421 Y36.578  
X21.421 Y37.081  
G00 Z5 
X21.621 Y37.281 
Z1.7 
G01 Z-0.6  
X20.918 Y37.281  
X20.918 Y36.378  
X21.621 Y36.378  
X21.621 Y37.281  
G00 Z5 
X25.651 Y36.031 S7000 M03
Z2 
G01 Z-0.3  
X25.148 Y36.031  
X25.148 Y35.728  
X25.651 Y35.728  
X25.651 Y36.031  
G00 Z5 
X25.851 Y36.231 
Z2 
G01 Z-0.3  
X24.948 Y36.231  
X24.948 Y35.528  
X25.851 Y35.528  
X25.851 Y36.231  
G00 Z5 
X25.651 Y36.031 
Z1.7 
G01 Z-0.6  
X25.148 Y36.031  
X25.148 Y35.728  
X25.651 Y35.728  
X25.651 Y36.031  
G00 Z5 
X25.851 Y36.231 
Z1.7 
G01 Z-0.6  
X24.948 Y36.231  
X24.948 Y35.528  
X25.851 Y35.528  
X25.851 Y36.231  
G00 Z5 
X25.651 Y37.931 S7000 M03
Z2 
G01 Z-0.3  
X25.148 Y37.931  
X25.148 Y37.628  
X25.651 Y37.628  
X25.651 Y37.931  
G00 Z5 
X25.851 Y38.131 
Z2 
G01 Z-0.3  
X24.948 Y38.131  
X24.948 Y37.428  
X25.851 Y37.428  
X25.851 Y38.131  
G00 Z5 
X25.651 Y37.931 
Z1.7 
G01 Z-0.6  
X25.148 Y37.931  
X25.148 Y37.628  
X25.651 Y37.628  
X25.651 Y37.931  
G00 Z5 
X25.851 Y38.131 
Z1.7 
G01 Z-0.6  
X24.948 Y38.131  
X24.948 Y37.428  
X25.851 Y37.428  
X25.851 Y38.131  
G00 Z5 
X28.261 Y35.931 S7000 M03
Z2 
G01 Z-0.3  
X28.258 Y35.931  
X28.258 Y35.528  
X28.261 Y35.528  
X28.261 Y35.931  
G00 Z5 
X28.461 Y36.131 
Z2 
G01 Z-0.3  
X28.058 Y36.131  
X28.058 Y35.328  
X28.461 Y35.328  
X28.461 Y36.131  
G00 Z5 
X28.261 Y35.931 
Z1.7 
G01 Z-0.6  
X28.258 Y35.931  
X28.258 Y35.528  
X28.261 Y35.528  
X28.261 Y35.931  
G00 Z5 
X28.461 Y36.131 
Z1.7 
G01 Z-0.6  
X28.058 Y36.131  
X28.058 Y35.328  
X28.461 Y35.328  
X28.461 Y36.131  
G00 Z5 
X30.161 Y35.931 S7000 M03
Z2 
G01 Z-0.3  
X30.158 Y35.931  
X30.158 Y35.528  
X30.161 Y35.528  
X30.161 Y35.931  
G00 Z5 
X30.361 Y36.131 
Z2 
G01 Z-0.3  
X29.958 Y36.131  
X29.958 Y35.328  
X30.361 Y35.328  
X30.361 Y36.131  
G00 Z5 
X30.161 Y35.931 
Z1.7 
G01 Z-0.6  
X30.158 Y35.931  
X30.158 Y35.528  
X30.161 Y35.528  
X30.161 Y35.931  
G00 Z5 
X30.361 Y36.131 
Z1.7 
G01 Z-0.6  
X29.958 Y36.131  
X29.958 Y35.328  
X30.361 Y35.328  
X30.361 Y36.131  
G00 Z5 
X29.211 Y38.131 S7000 M03
Z2 
G01 Z-0.3  
X29.208 Y38.131  
X29.208 Y37.728  
X29.211 Y37.728  
X29.211 Y38.131  
G00 Z5 
X29.411 Y38.331 
Z2 
G01 Z-0.3  
X29.008 Y38.331  
X29.008 Y37.528  
X29.411 Y37.528  
X29.411 Y38.331  
G00 Z5 
X29.211 Y38.131 
Z1.7 
G01 Z-0.6  
X29.208 Y38.131  
X29.208 Y37.728  
X29.211 Y37.728  
X29.211 Y38.131  
G00 Z5 
X29.411 Y38.331 
Z1.7 
G01 Z-0.6  
X29.008 Y38.331  
X29.008 Y37.528  
X29.411 Y37.528  
X29.411 Y38.331  
G00 Z5 
X30.731 Y31.581 S7000 M03
Z2 
G01 Z-0.3  
X30.228 Y31.581  
X30.228 Y31.278  
X30.731 Y31.278  
X30.731 Y31.581  
G00 Z5 
X30.931 Y31.781 
Z2 
G01 Z-0.3  
X30.028 Y31.781  
X30.028 Y31.078  
X30.931 Y31.078  
X30.931 Y31.781  
G00 Z5 
X30.731 Y31.581 
Z1.7 
G01 Z-0.6  
X30.228 Y31.581  
X30.228 Y31.278  
X30.731 Y31.278  
X30.731 Y31.581  
G00 Z5 
X30.931 Y31.781 
Z1.7 
G01 Z-0.6  
X30.028 Y31.781  
X30.028 Y31.078  
X30.931 Y31.078  
X30.931 Y31.781  
G00 Z5 
X30.731 Y29.681 S7000 M03
Z2 
G01 Z-0.3  
X30.228 Y29.681  
X30.228 Y29.378  
X30.731 Y29.378  
X30.731 Y29.681  
G00 Z5 
X30.931 Y29.881 
Z2 
G01 Z-0.3  
X30.028 Y29.881  
X30.028 Y29.178  
X30.931 Y29.178  
X30.931 Y29.881  
G00 Z5 
X30.731 Y29.681 
Z1.7 
G01 Z-0.6  
X30.228 Y29.681  
X30.228 Y29.378  
X30.731 Y29.378  
X30.731 Y29.681  
G00 Z5 
X30.931 Y29.881 
Z1.7 
G01 Z-0.6  
X30.028 Y29.881  
X30.028 Y29.178  
X30.931 Y29.178  
X30.931 Y29.881  
G00 Z5 
X30.854 Y23.454 S7000 M03
Z2 
G01 Z-0.3  
X30.35 Y23.454  
X30.35 Y23.15  
X30.854 Y23.15  
X30.854 Y23.454  
G00 Z5 
X31.054 Y23.654 
Z2 
G01 Z-0.3  
X30.15 Y23.654  
X30.15 Y22.95  
X31.054 Y22.95  
X31.054 Y23.654  
G00 Z5 
X30.854 Y23.454 
Z1.7 
G01 Z-0.6  
X30.35 Y23.454  
X30.35 Y23.15  
X30.854 Y23.15  
X30.854 Y23.454  
G00 Z5 
X31.054 Y23.654 
Z1.7 
G01 Z-0.6  
X30.15 Y23.654  
X30.15 Y22.95  
X31.054 Y22.95  
X31.054 Y23.654  
G00 Z5 
X30.854 Y21.554 S7000 M03
Z2 
G01 Z-0.3  
X30.35 Y21.554  
X30.35 Y21.25  
X30.854 Y21.25  
X30.854 Y21.554  
G00 Z5 
X31.054 Y21.754 
Z2 
G01 Z-0.3  
X30.15 Y21.754  
X30.15 Y21.05  
X31.054 Y21.05  
X31.054 Y21.754  
G00 Z5 
X30.854 Y21.554 
Z1.7 
G01 Z-0.6  
X30.35 Y21.554  
X30.35 Y21.25  
X30.854 Y21.25  
X30.854 Y21.554  
G00 Z5 
X31.054 Y21.754 
Z1.7 
G01 Z-0.6  
X30.15 Y21.754  
X30.15 Y21.05  
X31.054 Y21.05  
X31.054 Y21.754  
G00 Z5 
X33.491 Y15.491 S7000 M03
Z2 
G01 Z-0.3  
X33.188 Y15.491  
X33.188 Y14.988  
X33.491 Y14.988  
X33.491 Y15.491  
G00 Z5 
X33.691 Y15.691 
Z2 
G01 Z-0.3  
X32.988 Y15.691  
X32.988 Y14.788  
X33.691 Y14.788  
X33.691 Y15.691  
G00 Z5 
X33.491 Y15.491 
Z1.7 
G01 Z-0.6  
X33.188 Y15.491  
X33.188 Y14.988  
X33.491 Y14.988  
X33.491 Y15.491  
G00 Z5 
X33.691 Y15.691 
Z1.7 
G01 Z-0.6  
X32.988 Y15.691  
X32.988 Y14.788  
X33.691 Y14.788  
X33.691 Y15.691  
G00 Z5 
X35.391 Y15.491 S7000 M03
Z2 
G01 Z-0.3  
X35.088 Y15.491  
X35.088 Y14.988  
X35.391 Y14.988  
X35.391 Y15.491  
G00 Z5 
X35.591 Y15.691 
Z2 
G01 Z-0.3  
X34.888 Y15.691  
X34.888 Y14.788  
X35.591 Y14.788  
X35.591 Y15.691  
G00 Z5 
X35.391 Y15.491 
Z1.7 
G01 Z-0.6  
X35.088 Y15.491  
X35.088 Y14.988  
X35.391 Y14.988  
X35.391 Y15.491  
G00 Z5 
X35.591 Y15.691 
Z1.7 
G01 Z-0.6  
X34.888 Y15.691  
X34.888 Y14.788  
X35.591 Y14.788  
X35.591 Y15.691  
G00 Z5 
X34.48 Y23.685 S7000 M03
Z2 
G01 Z-0.3  
X34.099 Y23.685  
X34.099 Y20.002  
X34.48 Y20.002  
X34.48 Y23.685  
G00 Z5 
X34.68 Y23.885 
Z2 
G01 Z-0.3  
X33.899 Y23.885  
X33.899 Y19.802  
X34.68 Y19.802  
X34.68 Y23.885  
G00 Z5 
X34.88 Y24.085 
Z2 
G01 Z-0.3  
X33.699 Y24.085  
X33.699 Y19.602  
X34.88 Y19.602  
X34.88 Y24.085  
G00 Z5 
X34.48 Y23.685 
Z1.7 
G01 Z-0.6  
X34.099 Y23.685  
X34.099 Y20.002  
X34.48 Y20.002  
X34.48 Y23.685  
G00 Z5 
X34.68 Y23.885 
Z1.7 
G01 Z-0.6  
X33.899 Y23.885  
X33.899 Y19.802  
X34.68 Y19.802  
X34.68 Y23.885  
G00 Z5 
X34.88 Y24.085 
Z1.7 
G01 Z-0.6  
X33.699 Y24.085  
X33.699 Y19.602  
X34.88 Y19.602  
X34.88 Y24.085  
G00 Z5 
X34.48 Y33.337 S7000 M03
Z2 
G01 Z-0.3  
X34.099 Y33.337  
X34.099 Y29.654  
X34.48 Y29.654  
X34.48 Y33.337  
G00 Z5 
X34.68 Y33.537 
Z2 
G01 Z-0.3  
X33.899 Y33.537  
X33.899 Y29.454  
X34.68 Y29.454  
X34.68 Y33.537  
G00 Z5 
X34.88 Y33.737 
Z2 
G01 Z-0.3  
X33.699 Y33.737  
X33.699 Y29.254  
X34.88 Y29.254  
X34.88 Y33.737  
G00 Z5 
X34.48 Y33.337 
Z1.7 
G01 Z-0.6  
X34.099 Y33.337  
X34.099 Y29.654  
X34.48 Y29.654  
X34.48 Y33.337  
G00 Z5 
X34.68 Y33.537 
Z1.7 
G01 Z-0.6  
X33.899 Y33.537  
X33.899 Y29.454  
X34.68 Y29.454  
X34.68 Y33.537  
G00 Z5 
X34.88 Y33.737 
Z1.7 
G01 Z-0.6  
X33.699 Y33.737  
X33.699 Y29.254  
X34.88 Y29.254  
X34.88 Y33.737  
G00 Z5 
X36.561 Y36.321 S7000 M03
Z2 
G01 Z-0.3  
X34.558 Y36.321  
X34.558 Y36.118  
X36.561 Y36.118  
X36.561 Y36.321  
G00 Z5 
X36.761 Y36.521 
Z2 
G01 Z-0.3  
X34.358 Y36.521  
X34.358 Y35.918  
X36.761 Y35.918  
X36.761 Y36.521  
G00 Z5 
X36.961 Y36.721 
Z2 
G01 Z-0.3  
X34.158 Y36.721  
X34.158 Y35.718  
X36.961 Y35.718  
X36.961 Y36.721  
G00 Z5 
X37.161 Y36.921 
Z2 
G01 Z-0.3  
X33.958 Y36.921  
X33.958 Y35.518  
X37.161 Y35.518  
X37.161 Y36.921  
G00 Z5 
X36.561 Y36.321 
Z1.7 
G01 Z-0.6  
X34.558 Y36.321  
X34.558 Y36.118  
X36.561 Y36.118  
X36.561 Y36.321  
G00 Z5 
X36.761 Y36.521 
Z1.7 
G01 Z-0.6  
X34.358 Y36.521  
X34.358 Y35.918  
X36.761 Y35.918  
X36.761 Y36.521  
G00 Z5 
X36.961 Y36.721 
Z1.7 
G01 Z-0.6  
X34.158 Y36.721  
X34.158 Y35.718  
X36.961 Y35.718  
X36.961 Y36.721  
G00 Z5 
X37.161 Y36.921 
Z1.7 
G01 Z-0.6  
X33.958 Y36.921  
X33.958 Y35.518  
X37.161 Y35.518  
X37.161 Y36.921  
G00 Z5 
X25.401 Y41.011 S7000 M03
Z2 
G01 Z-0.3  
X25.398 Y41.011  
X25.398 Y40.608  
X25.401 Y40.608  
X25.401 Y41.011  
G00 Z5 
X25.601 Y41.211 
Z2 
G01 Z-0.3  
X25.198 Y41.211  
X25.198 Y40.408  
X25.601 Y40.408  
X25.601 Y41.211  
G00 Z5 
X25.401 Y41.011 
Z1.7 
G01 Z-0.6  
X25.398 Y41.011  
X25.398 Y40.608  
X25.401 Y40.608  
X25.401 Y41.011  
G00 Z5 
X25.601 Y41.211 
Z1.7 
G01 Z-0.6  
X25.198 Y41.211  
X25.198 Y40.408  
X25.601 Y40.408  
X25.601 Y41.211  
G00 Z5 
X24.451 Y43.211 S7000 M03
Z2 
G01 Z-0.3  
X24.448 Y43.211  
X24.448 Y42.808  
X24.451 Y42.808  
X24.451 Y43.211  
G00 Z5 
X24.651 Y43.411 
Z2 
G01 Z-0.3  
X24.248 Y43.411  
X24.248 Y42.608  
X24.651 Y42.608  
X24.651 Y43.411  
G00 Z5 
X24.451 Y43.211 
Z1.7 
G01 Z-0.6  
X24.448 Y43.211  
X24.448 Y42.808  
X24.451 Y42.808  
X24.451 Y43.211  
G00 Z5 
X24.651 Y43.411 
Z1.7 
G01 Z-0.6  
X24.248 Y43.411  
X24.248 Y42.608  
X24.651 Y42.608  
X24.651 Y43.411  
G00 Z5 
X26.351 Y43.211 S7000 M03
Z2 
G01 Z-0.3  
X26.348 Y43.211  
X26.348 Y42.808  
X26.351 Y42.808  
X26.351 Y43.211  
G00 Z5 
X26.551 Y43.411 
Z2 
G01 Z-0.3  
X26.148 Y43.411  
X26.148 Y42.608  
X26.551 Y42.608  
X26.551 Y43.411  
G00 Z5 
X26.351 Y43.211 
Z1.7 
G01 Z-0.6  
X26.348 Y43.211  
X26.348 Y42.808  
X26.351 Y42.808  
X26.351 Y43.211  
G00 Z5 
X26.551 Y43.411 
Z1.7 
G01 Z-0.6  
X26.148 Y43.411  
X26.148 Y42.608  
X26.551 Y42.608  
X26.551 Y43.411  
G00 Z5 
X29.461 Y41.111 S7000 M03
Z2 
G01 Z-0.3  
X28.958 Y41.111  
X28.958 Y40.808  
X29.461 Y40.808  
X29.461 Y41.111  
G00 Z5 
X29.661 Y41.311 
Z2 
G01 Z-0.3  
X28.758 Y41.311  
X28.758 Y40.608  
X29.661 Y40.608  
X29.661 Y41.311  
G00 Z5 
X29.461 Y41.111 
Z1.7 
G01 Z-0.6  
X28.958 Y41.111  
X28.958 Y40.808  
X29.461 Y40.808  
X29.461 Y41.111  
G00 Z5 
X29.661 Y41.311 
Z1.7 
G01 Z-0.6  
X28.758 Y41.311  
X28.758 Y40.608  
X29.661 Y40.608  
X29.661 Y41.311  
G00 Z5 
X29.461 Y43.011 S7000 M03
Z2 
G01 Z-0.3  
X28.958 Y43.011  
X28.958 Y42.708  
X29.461 Y42.708  
X29.461 Y43.011  
G00 Z5 
X29.661 Y43.211 
Z2 
G01 Z-0.3  
X28.758 Y43.211  
X28.758 Y42.508  
X29.661 Y42.508  
X29.661 Y43.211  
G00 Z5 
X29.461 Y43.011 
Z1.7 
G01 Z-0.6  
X28.958 Y43.011  
X28.958 Y42.708  
X29.461 Y42.708  
X29.461 Y43.011  
G00 Z5 
X29.661 Y43.211 
Z1.7 
G01 Z-0.6  
X28.758 Y43.211  
X28.758 Y42.508  
X29.661 Y42.508  
X29.661 Y43.211  
G00 Z5 
X33.311 Y42.821 S7000 M03
Z2 
G01 Z-0.3  
X33.208 Y42.821  
X33.208 Y42.218  
X33.311 Y42.218  
X33.311 Y42.821  
G00 Z5 
X33.511 Y43.021 
Z2 
G01 Z-0.3  
X33.008 Y43.021  
X33.008 Y42.018  
X33.511 Y42.018  
X33.511 Y43.021  
G00 Z5 
X33.711 Y43.221 
Z2 
G01 Z-0.3  
X32.808 Y43.221  
X32.808 Y41.818  
X33.711 Y41.818  
X33.711 Y43.221  
G00 Z5 
X33.311 Y42.821 
Z1.7 
G01 Z-0.6  
X33.208 Y42.821  
X33.208 Y42.218  
X33.311 Y42.218  
X33.311 Y42.821  
G00 Z5 
X33.511 Y43.021 
Z1.7 
G01 Z-0.6  
X33.008 Y43.021  
X33.008 Y42.018  
X33.511 Y42.018  
X33.511 Y43.021  
G00 Z5 
X33.711 Y43.221 
Z1.7 
G01 Z-0.6  
X32.808 Y43.221  
X32.808 Y41.818  
X33.711 Y41.818  
X33.711 Y43.221  
G00 Z5 
X35.611 Y42.821 S7000 M03
Z2 
G01 Z-0.3  
X35.508 Y42.821  
X35.508 Y42.218  
X35.611 Y42.218  
X35.611 Y42.821  
G00 Z5 
X35.811 Y43.021 
Z2 
G01 Z-0.3  
X35.308 Y43.021  
X35.308 Y42.018  
X35.811 Y42.018  
X35.811 Y43.021  
G00 Z5 
X36.011 Y43.221 
Z2 
G01 Z-0.3  
X35.108 Y43.221  
X35.108 Y41.818  
X36.011 Y41.818  
X36.011 Y43.221  
G00 Z5 
X35.611 Y42.821 
Z1.7 
G01 Z-0.6  
X35.508 Y42.821  
X35.508 Y42.218  
X35.611 Y42.218  
X35.611 Y42.821  
G00 Z5 
X35.811 Y43.021 
Z1.7 
G01 Z-0.6  
X35.308 Y43.021  
X35.308 Y42.018  
X35.811 Y42.018  
X35.811 Y43.021  
G00 Z5 
X36.011 Y43.221 
Z1.7 
G01 Z-0.6  
X35.108 Y43.221  
X35.108 Y41.818  
X36.011 Y41.818  
X36.011 Y43.221  
G00 Z5 
X37.911 Y42.821 S7000 M03
Z2 
G01 Z-0.3  
X37.808 Y42.821  
X37.808 Y42.218  
X37.911 Y42.218  
X37.911 Y42.821  
G00 Z5 
X38.111 Y43.021 
Z2 
G01 Z-0.3  
X37.608 Y43.021  
X37.608 Y42.018  
X38.111 Y42.018  
X38.111 Y43.021  
G00 Z5 
X38.311 Y43.221 
Z2 
G01 Z-0.3  
X37.408 Y43.221  
X37.408 Y41.818  
X38.311 Y41.818  
X38.311 Y43.221  
G00 Z5 
X37.911 Y42.821 
Z1.7 
G01 Z-0.6  
X37.808 Y42.821  
X37.808 Y42.218  
X37.911 Y42.218  
X37.911 Y42.821  
G00 Z5 
X38.111 Y43.021 
Z1.7 
G01 Z-0.6  
X37.608 Y43.021  
X37.608 Y42.018  
X38.111 Y42.018  
X38.111 Y43.021  
G00 Z5 
X38.311 Y43.221 
Z1.7 
G01 Z-0.6  
X37.408 Y43.221  
X37.408 Y41.818  
X38.311 Y41.818  
X38.311 Y43.221  
G00 Z5 
X41.111 Y42.161 S7000 M03
Z2 
G01 Z-0.3  
X40.808 Y42.161  
X40.808 Y41.658  
X41.111 Y41.658  
X41.111 Y42.161  
G00 Z5 
X41.311 Y42.361 
Z2 
G01 Z-0.3  
X40.608 Y42.361  
X40.608 Y41.458  
X41.311 Y41.458  
X41.311 Y42.361  
G00 Z5 
X41.111 Y42.161 
Z1.7 
G01 Z-0.6  
X40.808 Y42.161  
X40.808 Y41.658  
X41.111 Y41.658  
X41.111 Y42.161  
G00 Z5 
X41.311 Y42.361 
Z1.7 
G01 Z-0.6  
X40.608 Y42.361  
X40.608 Y41.458  
X41.311 Y41.458  
X41.311 Y42.361  
G00 Z5 
X43.011 Y42.161 S7000 M03
Z2 
G01 Z-0.3  
X42.708 Y42.161  
X42.708 Y41.658  
X43.011 Y41.658  
X43.011 Y42.161  
G00 Z5 
X43.211 Y42.361 
Z2 
G01 Z-0.3  
X42.508 Y42.361  
X42.508 Y41.458  
X43.211 Y41.458  
X43.211 Y42.361  
G00 Z5 
X43.011 Y42.161 
Z1.7 
G01 Z-0.6  
X42.708 Y42.161  
X42.708 Y41.658  
X43.011 Y41.658  
X43.011 Y42.161  
G00 Z5 
X43.211 Y42.361 
Z1.7 
G01 Z-0.6  
X42.508 Y42.361  
X42.508 Y41.458  
X43.211 Y41.458  
X43.211 Y42.361  
G00 Z5 
X40.891 Y37.931 S7000 M03
Z2 
G01 Z-0.3  
X40.388 Y37.931  
X40.388 Y37.628  
X40.891 Y37.628  
X40.891 Y37.931  
G00 Z5 
X41.091 Y38.131 
Z2 
G01 Z-0.3  
X40.188 Y38.131  
X40.188 Y37.428  
X41.091 Y37.428  
X41.091 Y38.131  
G00 Z5 
X40.891 Y37.931 
Z1.7 
G01 Z-0.6  
X40.388 Y37.931  
X40.388 Y37.628  
X40.891 Y37.628  
X40.891 Y37.931  
G00 Z5 
X41.091 Y38.131 
Z1.7 
G01 Z-0.6  
X40.188 Y38.131  
X40.188 Y37.428  
X41.091 Y37.428  
X41.091 Y38.131  
G00 Z5 
X40.891 Y36.031 S7000 M03
Z2 
G01 Z-0.3  
X40.388 Y36.031  
X40.388 Y35.728  
X40.891 Y35.728  
X40.891 Y36.031  
G00 Z5 
X41.091 Y36.231 
Z2 
G01 Z-0.3  
X40.188 Y36.231  
X40.188 Y35.528  
X41.091 Y35.528  
X41.091 Y36.231  
G00 Z5 
X40.891 Y36.031 
Z1.7 
G01 Z-0.6  
X40.388 Y36.031  
X40.388 Y35.728  
X40.891 Y35.728  
X40.891 Y36.031  
G00 Z5 
X41.091 Y36.231 
Z1.7 
G01 Z-0.6  
X40.188 Y36.231  
X40.188 Y35.528  
X41.091 Y35.528  
X41.091 Y36.231  
G00 Z5 
X42.011 Y32.901 S7000 M03
Z2 
G01 Z-0.3  
X41.808 Y32.901  
X41.808 Y32.697  
X42.011 Y32.697  
X42.011 Y32.901  
G00 Z5 
X42.211 Y33.101 
Z2 
G01 Z-0.3  
X41.608 Y33.101  
X41.608 Y32.498  
X42.211 Y32.498  
X42.211 Y33.101  
G00 Z5 
X42.011 Y32.901 
Z1.7 
G01 Z-0.6  
X41.808 Y32.901  
X41.808 Y32.697  
X42.011 Y32.697  
X42.011 Y32.901  
G00 Z5 
X42.211 Y33.101 
Z1.7 
G01 Z-0.6  
X41.608 Y33.101  
X41.608 Y32.498  
X42.211 Y32.498  
X42.211 Y33.101  
G00 Z5 
X42.011 Y30.801 S7000 M03
Z2 
G01 Z-0.3  
X41.808 Y30.801  
X41.808 Y30.598  
X42.011 Y30.598  
X42.011 Y30.801  
G00 Z5 
X42.211 Y31.001 
Z2 
G01 Z-0.3  
X41.608 Y31.001  
X41.608 Y30.398  
X42.211 Y30.398  
X42.211 Y31.001  
G00 Z5 
X42.011 Y30.801 
Z1.7 
G01 Z-0.6  
X41.808 Y30.801  
X41.808 Y30.598  
X42.011 Y30.598  
X42.011 Y30.801  
G00 Z5 
X42.211 Y31.001 
Z1.7 
G01 Z-0.6  
X41.608 Y31.001  
X41.608 Y30.398  
X42.211 Y30.398  
X42.211 Y31.001  
G00 Z5 
X39.481 Y27.801 S7000 M03
Z2 
G01 Z-0.3  
X38.928 Y27.801  
X38.928 Y27.498  
X39.481 Y27.498  
X39.481 Y27.801  
G00 Z5 
X39.681 Y28.001 
Z2 
G01 Z-0.3  
X38.728 Y28.001  
X38.728 Y27.298  
X39.681 Y27.298  
X39.681 Y28.001  
G00 Z5 
X39.481 Y27.801 
Z1.7 
G01 Z-0.6  
X38.928 Y27.801  
X38.928 Y27.498  
X39.481 Y27.498  
X39.481 Y27.801  
G00 Z5 
X39.681 Y28.001 
Z1.7 
G01 Z-0.6  
X38.728 Y28.001  
X38.728 Y27.298  
X39.681 Y27.298  
X39.681 Y28.001  
G00 Z5 
X39.481 Y23.301 S7000 M03
Z2 
G01 Z-0.3  
X38.928 Y23.301  
X38.928 Y22.998  
X39.481 Y22.998  
X39.481 Y23.301  
G00 Z5 
X39.681 Y23.501 
Z2 
G01 Z-0.3  
X38.728 Y23.501  
X38.728 Y22.798  
X39.681 Y22.798  
X39.681 Y23.501  
G00 Z5 
X39.481 Y23.301 
Z1.7 
G01 Z-0.6  
X38.928 Y23.301  
X38.928 Y22.998  
X39.481 Y22.998  
X39.481 Y23.301  
G00 Z5 
X39.681 Y23.501 
Z1.7 
G01 Z-0.6  
X38.728 Y23.501  
X38.728 Y22.798  
X39.681 Y22.798  
X39.681 Y23.501  
G00 Z5 
X39.811 Y20.761 S7000 M03
Z2 
G01 Z-0.3  
X39.508 Y20.761  
X39.508 Y20.208  
X39.811 Y20.208  
X39.811 Y20.761  
G00 Z5 
X40.011 Y20.961 
Z2 
G01 Z-0.3  
X39.308 Y20.961  
X39.308 Y20.008  
X40.011 Y20.008  
X40.011 Y20.961  
G00 Z5 
X39.811 Y20.761 
Z1.7 
G01 Z-0.6  
X39.508 Y20.761  
X39.508 Y20.208  
X39.811 Y20.208  
X39.811 Y20.761  
G00 Z5 
X40.011 Y20.961 
Z1.7 
G01 Z-0.6  
X39.308 Y20.961  
X39.308 Y20.008  
X40.011 Y20.008  
X40.011 Y20.961  
G00 Z5 
X39.811 Y12.811 S7000 M03
Z2 
G01 Z-0.3  
X39.508 Y12.811  
X39.508 Y12.258  
X39.811 Y12.258  
X39.811 Y12.811  
G00 Z5 
X40.011 Y13.011 
Z2 
G01 Z-0.3  
X39.308 Y13.011  
X39.308 Y12.058  
X40.011 Y12.058  
X40.011 Y13.011  
G00 Z5 
X39.811 Y12.811 
Z1.7 
G01 Z-0.6  
X39.508 Y12.811  
X39.508 Y12.258  
X39.811 Y12.258  
X39.811 Y12.811  
G00 Z5 
X40.011 Y13.011 
Z1.7 
G01 Z-0.6  
X39.308 Y13.011  
X39.308 Y12.058  
X40.011 Y12.058  
X40.011 Y13.011  
G00 Z5 
X44.311 Y12.811 S7000 M03
Z2 
G01 Z-0.3  
X44.008 Y12.811  
X44.008 Y12.258  
X44.311 Y12.258  
X44.311 Y12.811  
G00 Z5 
X44.511 Y13.011 
Z2 
G01 Z-0.3  
X43.808 Y13.011  
X43.808 Y12.058  
X44.511 Y12.058  
X44.511 Y13.011  
G00 Z5 
X44.311 Y12.811 
Z1.7 
G01 Z-0.6  
X44.008 Y12.811  
X44.008 Y12.258  
X44.311 Y12.258  
X44.311 Y12.811  
G00 Z5 
X44.511 Y13.011 
Z1.7 
G01 Z-0.6  
X43.808 Y13.011  
X43.808 Y12.058  
X44.511 Y12.058  
X44.511 Y13.011  
G00 Z5 
X44.311 Y20.761 S7000 M03
Z2 
G01 Z-0.3  
X44.008 Y20.761  
X44.008 Y20.208  
X44.311 Y20.208  
X44.311 Y20.761  
G00 Z5 
X44.511 Y20.961 
Z2 
G01 Z-0.3  
X43.808 Y20.961  
X43.808 Y20.008  
X44.511 Y20.008  
X44.511 Y20.961  
G00 Z5 
X44.311 Y20.761 
Z1.7 
G01 Z-0.6  
X44.008 Y20.761  
X44.008 Y20.208  
X44.311 Y20.208  
X44.311 Y20.761  
G00 Z5 
X44.511 Y20.961 
Z1.7 
G01 Z-0.6  
X43.808 Y20.961  
X43.808 Y20.008  
X44.511 Y20.008  
X44.511 Y20.961  
G00 Z5 
X48.511 Y18.251 S7000 M03
Z2 
G01 Z-0.3  
X48.008 Y18.251  
X48.008 Y17.948  
X48.511 Y17.948  
X48.511 Y18.251  
G00 Z5 
X48.711 Y18.451 
Z2 
G01 Z-0.3  
X47.808 Y18.451  
X47.808 Y17.748  
X48.711 Y17.748  
X48.711 Y18.451  
G00 Z5 
X48.511 Y18.251 
Z1.7 
G01 Z-0.6  
X48.008 Y18.251  
X48.008 Y17.948  
X48.511 Y17.948  
X48.511 Y18.251  
G00 Z5 
X48.711 Y18.451 
Z1.7 
G01 Z-0.6  
X47.808 Y18.451  
X47.808 Y17.748  
X48.711 Y17.748  
X48.711 Y18.451  
G00 Z5 
X48.511 Y20.151 S7000 M03
Z2 
G01 Z-0.3  
X48.008 Y20.151  
X48.008 Y19.848  
X48.511 Y19.848  
X48.511 Y20.151  
G00 Z5 
X48.711 Y20.351 
Z2 
G01 Z-0.3  
X47.808 Y20.351  
X47.808 Y19.648  
X48.711 Y19.648  
X48.711 Y20.351  
G00 Z5 
X48.511 Y20.151 
Z1.7 
G01 Z-0.6  
X48.008 Y20.151  
X48.008 Y19.848  
X48.511 Y19.848  
X48.511 Y20.151  
G00 Z5 
X48.711 Y20.351 
Z1.7 
G01 Z-0.6  
X47.808 Y20.351  
X47.808 Y19.648  
X48.711 Y19.648  
X48.711 Y20.351  
G00 Z5 
X47.431 Y23.301 S7000 M03
Z2 
G01 Z-0.3  
X46.878 Y23.301  
X46.878 Y22.998  
X47.431 Y22.998  
X47.431 Y23.301  
G00 Z5 
X47.631 Y23.501 
Z2 
G01 Z-0.3  
X46.678 Y23.501  
X46.678 Y22.798  
X47.631 Y22.798  
X47.631 Y23.501  
G00 Z5 
X47.431 Y23.301 
Z1.7 
G01 Z-0.6  
X46.878 Y23.301  
X46.878 Y22.998  
X47.431 Y22.998  
X47.431 Y23.301  
G00 Z5 
X47.631 Y23.501 
Z1.7 
G01 Z-0.6  
X46.678 Y23.501  
X46.678 Y22.798  
X47.631 Y22.798  
X47.631 Y23.501  
G00 Z5 
X47.431 Y27.801 S7000 M03
Z2 
G01 Z-0.3  
X46.878 Y27.801  
X46.878 Y27.498  
X47.431 Y27.498  
X47.431 Y27.801  
G00 Z5 
X47.631 Y28.001 
Z2 
G01 Z-0.3  
X46.678 Y28.001  
X46.678 Y27.298  
X47.631 Y27.298  
X47.631 Y28.001  
G00 Z5 
X47.431 Y27.801 
Z1.7 
G01 Z-0.6  
X46.878 Y27.801  
X46.878 Y27.498  
X47.431 Y27.498  
X47.431 Y27.801  
G00 Z5 
X47.631 Y28.001 
Z1.7 
G01 Z-0.6  
X46.678 Y28.001  
X46.678 Y27.298  
X47.631 Y27.298  
X47.631 Y28.001  
G00 Z5 
X45.971 Y30.951 S7000 M03
Z2 
G01 Z-0.3  
X45.468 Y30.951  
X45.468 Y30.648  
X45.971 Y30.648  
X45.971 Y30.951  
G00 Z5 
X46.171 Y31.151 
Z2 
G01 Z-0.3  
X45.268 Y31.151  
X45.268 Y30.448  
X46.171 Y30.448  
X46.171 Y31.151  
G00 Z5 
X45.971 Y30.951 
Z1.7 
G01 Z-0.6  
X45.468 Y30.951  
X45.468 Y30.648  
X45.971 Y30.648  
X45.971 Y30.951  
G00 Z5 
X46.171 Y31.151 
Z1.7 
G01 Z-0.6  
X45.268 Y31.151  
X45.268 Y30.448  
X46.171 Y30.448  
X46.171 Y31.151  
G00 Z5 
X45.971 Y32.851 S7000 M03
Z2 
G01 Z-0.3  
X45.468 Y32.851  
X45.468 Y32.548  
X45.971 Y32.548  
X45.971 Y32.851  
G00 Z5 
X46.171 Y33.051 
Z2 
G01 Z-0.3  
X45.268 Y33.051  
X45.268 Y32.348  
X46.171 Y32.348  
X46.171 Y33.051  
G00 Z5 
X45.971 Y32.851 
Z1.7 
G01 Z-0.6  
X45.468 Y32.851  
X45.468 Y32.548  
X45.971 Y32.548  
X45.971 Y32.851  
G00 Z5 
X46.171 Y33.051 
Z1.7 
G01 Z-0.6  
X45.268 Y33.051  
X45.268 Y32.348  
X46.171 Y32.348  
X46.171 Y33.051  
G00 Z5 
X45.971 Y36.031 S7000 M03
Z2 
G01 Z-0.3  
X45.468 Y36.031  
X45.468 Y35.728  
X45.971 Y35.728  
X45.971 Y36.031  
G00 Z5 
X46.171 Y36.231 
Z2 
G01 Z-0.3  
X45.268 Y36.231  
X45.268 Y35.528  
X46.171 Y35.528  
X46.171 Y36.231  
G00 Z5 
X45.971 Y36.031 
Z1.7 
G01 Z-0.6  
X45.468 Y36.031  
X45.468 Y35.728  
X45.971 Y35.728  
X45.971 Y36.031  
G00 Z5 
X46.171 Y36.231 
Z1.7 
G01 Z-0.6  
X45.268 Y36.231  
X45.268 Y35.528  
X46.171 Y35.528  
X46.171 Y36.231  
G00 Z5 
X45.971 Y37.931 S7000 M03
Z2 
G01 Z-0.3  
X45.468 Y37.931  
X45.468 Y37.628  
X45.971 Y37.628  
X45.971 Y37.931  
G00 Z5 
X46.171 Y38.131 
Z2 
G01 Z-0.3  
X45.268 Y38.131  
X45.268 Y37.428  
X46.171 Y37.428  
X46.171 Y38.131  
G00 Z5 
X45.971 Y37.931 
Z1.7 
G01 Z-0.6  
X45.468 Y37.931  
X45.468 Y37.628  
X45.971 Y37.628  
X45.971 Y37.931  
G00 Z5 
X46.171 Y38.131 
Z1.7 
G01 Z-0.6  
X45.268 Y38.131  
X45.268 Y37.428  
X46.171 Y37.428  
X46.171 Y38.131  
G00 Z5 
X51.051 Y37.931 S7000 M03
Z2 
G01 Z-0.3  
X50.548 Y37.931  
X50.548 Y37.628  
X51.051 Y37.628  
X51.051 Y37.931  
G00 Z5 
X51.251 Y38.131 
Z2 
G01 Z-0.3  
X50.348 Y38.131  
X50.348 Y37.428  
X51.251 Y37.428  
X51.251 Y38.131  
G00 Z5 
X51.051 Y37.931 
Z1.7 
G01 Z-0.6  
X50.548 Y37.931  
X50.548 Y37.628  
X51.051 Y37.628  
X51.051 Y37.931  
G00 Z5 
X51.251 Y38.131 
Z1.7 
G01 Z-0.6  
X50.348 Y38.131  
X50.348 Y37.428  
X51.251 Y37.428  
X51.251 Y38.131  
G00 Z5 
X51.051 Y36.031 S7000 M03
Z2 
G01 Z-0.3  
X50.548 Y36.031  
X50.548 Y35.728  
X51.051 Y35.728  
X51.051 Y36.031  
G00 Z5 
X51.251 Y36.231 
Z2 
G01 Z-0.3  
X50.348 Y36.231  
X50.348 Y35.528  
X51.251 Y35.528  
X51.251 Y36.231  
G00 Z5 
X51.051 Y36.031 
Z1.7 
G01 Z-0.6  
X50.548 Y36.031  
X50.548 Y35.728  
X51.051 Y35.728  
X51.051 Y36.031  
G00 Z5 
X51.251 Y36.231 
Z1.7 
G01 Z-0.6  
X50.348 Y36.231  
X50.348 Y35.528  
X51.251 Y35.528  
X51.251 Y36.231  
G00 Z5 
X57.401 Y39.201 S7000 M03
Z2 
G01 Z-0.3  
X56.898 Y39.201  
X56.898 Y38.898  
X57.401 Y38.898  
X57.401 Y39.201  
G00 Z5 
X57.601 Y39.401 
Z2 
G01 Z-0.3  
X56.698 Y39.401  
X56.698 Y38.698  
X57.601 Y38.698  
X57.601 Y39.401  
G00 Z5 
X57.401 Y39.201 
Z1.7 
G01 Z-0.6  
X56.898 Y39.201  
X56.898 Y38.898  
X57.401 Y38.898  
X57.401 Y39.201  
G00 Z5 
X57.601 Y39.401 
Z1.7 
G01 Z-0.6  
X56.698 Y39.401  
X56.698 Y38.698  
X57.601 Y38.698  
X57.601 Y39.401  
G00 Z5 
X57.401 Y37.301 S7000 M03
Z2 
G01 Z-0.3  
X56.898 Y37.301  
X56.898 Y36.998  
X57.401 Y36.998  
X57.401 Y37.301  
G00 Z5 
X57.601 Y37.501 
Z2 
G01 Z-0.3  
X56.698 Y37.501  
X56.698 Y36.798  
X57.601 Y36.798  
X57.601 Y37.501  
G00 Z5 
X57.401 Y37.301 
Z1.7 
G01 Z-0.6  
X56.898 Y37.301  
X56.898 Y36.998  
X57.401 Y36.998  
X57.401 Y37.301  
G00 Z5 
X57.601 Y37.501 
Z1.7 
G01 Z-0.6  
X56.698 Y37.501  
X56.698 Y36.798  
X57.601 Y36.798  
X57.601 Y37.501  
G00 Z5 
X60.161 Y42.161 S7000 M03
Z2 
G01 Z-0.3  
X59.858 Y42.161  
X59.858 Y41.658  
X60.161 Y41.658  
X60.161 Y42.161  
G00 Z5 
X60.361 Y42.361 
Z2 
G01 Z-0.3  
X59.658 Y42.361  
X59.658 Y41.458  
X60.361 Y41.458  
X60.361 Y42.361  
G00 Z5 
X60.161 Y42.161 
Z1.7 
G01 Z-0.6  
X59.858 Y42.161  
X59.858 Y41.658  
X60.161 Y41.658  
X60.161 Y42.161  
G00 Z5 
X60.361 Y42.361 
Z1.7 
G01 Z-0.6  
X59.658 Y42.361  
X59.658 Y41.458  
X60.361 Y41.458  
X60.361 Y42.361  
G00 Z5 
X62.061 Y42.161 S7000 M03
Z2 
G01 Z-0.3  
X61.758 Y42.161  
X61.758 Y41.658  
X62.061 Y41.658  
X62.061 Y42.161  
G00 Z5 
X62.261 Y42.361 
Z2 
G01 Z-0.3  
X61.558 Y42.361  
X61.558 Y41.458  
X62.261 Y41.458  
X62.261 Y42.361  
G00 Z5 
X62.061 Y42.161 
Z1.7 
G01 Z-0.6  
X61.758 Y42.161  
X61.758 Y41.658  
X62.061 Y41.658  
X62.061 Y42.161  
G00 Z5 
X62.261 Y42.361 
Z1.7 
G01 Z-0.6  
X61.558 Y42.361  
X61.558 Y41.458  
X62.261 Y41.458  
X62.261 Y42.361  
G00 Z5 
X63.751 Y39.201 S7000 M03
Z2 
G01 Z-0.3  
X63.248 Y39.201  
X63.248 Y38.898  
X63.751 Y38.898  
X63.751 Y39.201  
G00 Z5 
X63.951 Y39.401 
Z2 
G01 Z-0.3  
X63.048 Y39.401  
X63.048 Y38.698  
X63.951 Y38.698  
X63.951 Y39.401  
G00 Z5 
X63.751 Y39.201 
Z1.7 
G01 Z-0.6  
X63.248 Y39.201  
X63.248 Y38.898  
X63.751 Y38.898  
X63.751 Y39.201  
G00 Z5 
X63.951 Y39.401 
Z1.7 
G01 Z-0.6  
X63.048 Y39.401  
X63.048 Y38.698  
X63.951 Y38.698  
X63.951 Y39.401  
G00 Z5 
X63.751 Y37.301 S7000 M03
Z2 
G01 Z-0.3  
X63.248 Y37.301  
X63.248 Y36.998  
X63.751 Y36.998  
X63.751 Y37.301  
G00 Z5 
X63.951 Y37.501 
Z2 
G01 Z-0.3  
X63.048 Y37.501  
X63.048 Y36.798  
X63.951 Y36.798  
X63.951 Y37.501  
G00 Z5 
X63.751 Y37.301 
Z1.7 
G01 Z-0.6  
X63.248 Y37.301  
X63.248 Y36.998  
X63.751 Y36.998  
X63.751 Y37.301  
G00 Z5 
X63.951 Y37.501 
Z1.7 
G01 Z-0.6  
X63.048 Y37.501  
X63.048 Y36.798  
X63.951 Y36.798  
X63.951 Y37.501  
G00 Z5 
X67.561 Y39.201 S7000 M03
Z2 
G01 Z-0.3  
X67.058 Y39.201  
X67.058 Y38.898  
X67.561 Y38.898  
X67.561 Y39.201  
G00 Z5 
X67.761 Y39.401 
Z2 
G01 Z-0.3  
X66.858 Y39.401  
X66.858 Y38.698  
X67.761 Y38.698  
X67.761 Y39.401  
G00 Z5 
X67.561 Y39.201 
Z1.7 
G01 Z-0.6  
X67.058 Y39.201  
X67.058 Y38.898  
X67.561 Y38.898  
X67.561 Y39.201  
G00 Z5 
X67.761 Y39.401 
Z1.7 
G01 Z-0.6  
X66.858 Y39.401  
X66.858 Y38.698  
X67.761 Y38.698  
X67.761 Y39.401  
G00 Z5 
X67.561 Y37.301 S7000 M03
Z2 
G01 Z-0.3  
X67.058 Y37.301  
X67.058 Y36.998  
X67.561 Y36.998  
X67.561 Y37.301  
G00 Z5 
X67.761 Y37.501 
Z2 
G01 Z-0.3  
X66.858 Y37.501  
X66.858 Y36.798  
X67.761 Y36.798  
X67.761 Y37.501  
G00 Z5 
X67.561 Y37.301 
Z1.7 
G01 Z-0.6  
X67.058 Y37.301  
X67.058 Y36.998  
X67.561 Y36.998  
X67.561 Y37.301  
G00 Z5 
X67.761 Y37.501 
Z1.7 
G01 Z-0.6  
X66.858 Y37.501  
X66.858 Y36.798  
X67.761 Y36.798  
X67.761 Y37.501  
G00 Z5 
X68.131 Y34.701 S7000 M03
Z2 
G01 Z-0.3  
X67.928 Y34.701  
X67.928 Y32.697  
X68.131 Y32.697  
X68.131 Y34.701  
G00 Z5 
X68.331 Y34.901 
Z2 
G01 Z-0.3  
X67.728 Y34.901  
X67.728 Y32.498  
X68.331 Y32.498  
X68.331 Y34.901  
G00 Z5 
X68.131 Y34.701 
Z1.7 
G01 Z-0.6  
X67.928 Y34.701  
X67.928 Y32.697  
X68.131 Y32.697  
X68.131 Y34.701  
G00 Z5 
X68.331 Y34.901 
Z1.7 
G01 Z-0.6  
X67.728 Y34.901  
X67.728 Y32.498  
X68.331 Y32.498  
X68.331 Y34.901  
G00 Z5 
X66.131 Y34.701 S7000 M03
Z2 
G01 Z-0.3  
X65.928 Y34.701  
X65.928 Y32.697  
X66.131 Y32.697  
X66.131 Y34.701  
G00 Z5 
X66.331 Y34.901 
Z2 
G01 Z-0.3  
X65.728 Y34.901  
X65.728 Y32.498  
X66.331 Y32.498  
X66.331 Y34.901  
G00 Z5 
X66.131 Y34.701 
Z1.7 
G01 Z-0.6  
X65.928 Y34.701  
X65.928 Y32.697  
X66.131 Y32.697  
X66.131 Y34.701  
G00 Z5 
X66.331 Y34.901 
Z1.7 
G01 Z-0.6  
X65.728 Y34.901  
X65.728 Y32.498  
X66.331 Y32.498  
X66.331 Y34.901  
G00 Z5 
X64.131 Y34.701 S7000 M03
Z2 
G01 Z-0.3  
X63.928 Y34.701  
X63.928 Y32.697  
X64.131 Y32.697  
X64.131 Y34.701  
G00 Z5 
X64.331 Y34.901 
Z2 
G01 Z-0.3  
X63.728 Y34.901  
X63.728 Y32.498  
X64.331 Y32.498  
X64.331 Y34.901  
G00 Z5 
X64.131 Y34.701 
Z1.7 
G01 Z-0.6  
X63.928 Y34.701  
X63.928 Y32.697  
X64.131 Y32.697  
X64.131 Y34.701  
G00 Z5 
X64.331 Y34.901 
Z1.7 
G01 Z-0.6  
X63.728 Y34.901  
X63.728 Y32.498  
X64.331 Y32.498  
X64.331 Y34.901  
G00 Z5 
X62.131 Y34.701 S7000 M03
Z2 
G01 Z-0.3  
X61.928 Y34.701  
X61.928 Y32.697  
X62.131 Y32.697  
X62.131 Y34.701  
G00 Z5 
X62.331 Y34.901 
Z2 
G01 Z-0.3  
X61.728 Y34.901  
X61.728 Y32.498  
X62.331 Y32.498  
X62.331 Y34.901  
G00 Z5 
X62.131 Y34.701 
Z1.7 
G01 Z-0.6  
X61.928 Y34.701  
X61.928 Y32.697  
X62.131 Y32.697  
X62.131 Y34.701  
G00 Z5 
X62.331 Y34.901 
Z1.7 
G01 Z-0.6  
X61.728 Y34.901  
X61.728 Y32.498  
X62.331 Y32.498  
X62.331 Y34.901  
G00 Z5 
X60.131 Y34.701 S7000 M03
Z2 
G01 Z-0.3  
X59.928 Y34.701  
X59.928 Y32.697  
X60.131 Y32.697  
X60.131 Y34.701  
G00 Z5 
X60.331 Y34.901 
Z2 
G01 Z-0.3  
X59.728 Y34.901  
X59.728 Y32.498  
X60.331 Y32.498  
X60.331 Y34.901  
G00 Z5 
X60.131 Y34.701 
Z1.7 
G01 Z-0.6  
X59.928 Y34.701  
X59.928 Y32.697  
X60.131 Y32.697  
X60.131 Y34.701  
G00 Z5 
X60.331 Y34.901 
Z1.7 
G01 Z-0.6  
X59.728 Y34.901  
X59.728 Y32.498  
X60.331 Y32.498  
X60.331 Y34.901  
G00 Z5 
X58.131 Y34.701 S7000 M03
Z2 
G01 Z-0.3  
X57.928 Y34.701  
X57.928 Y32.697  
X58.131 Y32.697  
X58.131 Y34.701  
G00 Z5 
X58.331 Y34.901 
Z2 
G01 Z-0.3  
X57.728 Y34.901  
X57.728 Y32.498  
X58.331 Y32.498  
X58.331 Y34.901  
G00 Z5 
X58.131 Y34.701 
Z1.7 
G01 Z-0.6  
X57.928 Y34.701  
X57.928 Y32.697  
X58.131 Y32.697  
X58.131 Y34.701  
G00 Z5 
X58.331 Y34.901 
Z1.7 
G01 Z-0.6  
X57.728 Y34.901  
X57.728 Y32.498  
X58.331 Y32.498  
X58.331 Y34.901  
G00 Z5 
X56.131 Y34.701 S7000 M03
Z2 
G01 Z-0.3  
X55.928 Y34.701  
X55.928 Y32.697  
X56.131 Y32.697  
X56.131 Y34.701  
G00 Z5 
X56.331 Y34.901 
Z2 
G01 Z-0.3  
X55.728 Y34.901  
X55.728 Y32.498  
X56.331 Y32.498  
X56.331 Y34.901  
G00 Z5 
X56.131 Y34.701 
Z1.7 
G01 Z-0.6  
X55.928 Y34.701  
X55.928 Y32.697  
X56.131 Y32.697  
X56.131 Y34.701  
G00 Z5 
X56.331 Y34.901 
Z1.7 
G01 Z-0.6  
X55.728 Y34.901  
X55.728 Y32.498  
X56.331 Y32.498  
X56.331 Y34.901  
G00 Z5 
X54.131 Y34.701 S7000 M03
Z2 
G01 Z-0.3  
X53.928 Y34.701  
X53.928 Y32.697  
X54.131 Y32.697  
X54.131 Y34.701  
G00 Z5 
X54.331 Y34.901 
Z2 
G01 Z-0.3  
X53.728 Y34.901  
X53.728 Y32.498  
X54.331 Y32.498  
X54.331 Y34.901  
G00 Z5 
X54.131 Y34.701 
Z1.7 
G01 Z-0.6  
X53.928 Y34.701  
X53.928 Y32.697  
X54.131 Y32.697  
X54.131 Y34.701  
G00 Z5 
X54.331 Y34.901 
Z1.7 
G01 Z-0.6  
X53.728 Y34.901  
X53.728 Y32.498  
X54.331 Y32.498  
X54.331 Y34.901  
G00 Z5 
X52.931 Y30.301 S7000 M03
Z2 
G01 Z-0.3  
X50.928 Y30.301  
X50.928 Y30.098  
X52.931 Y30.098  
X52.931 Y30.301  
G00 Z5 
X53.131 Y30.501 
Z2 
G01 Z-0.3  
X50.728 Y30.501  
X50.728 Y29.898  
X53.131 Y29.898  
X53.131 Y30.501  
G00 Z5 
X52.931 Y30.301 
Z1.7 
G01 Z-0.6  
X50.928 Y30.301  
X50.928 Y30.098  
X52.931 Y30.098  
X52.931 Y30.301  
G00 Z5 
X53.131 Y30.501 
Z1.7 
G01 Z-0.6  
X50.728 Y30.501  
X50.728 Y29.898  
X53.131 Y29.898  
X53.131 Y30.501  
G00 Z5 
X52.931 Y28.301 S7000 M03
Z2 
G01 Z-0.3  
X50.928 Y28.301  
X50.928 Y28.098  
X52.931 Y28.098  
X52.931 Y28.301  
G00 Z5 
X53.131 Y28.501 
Z2 
G01 Z-0.3  
X50.728 Y28.501  
X50.728 Y27.898  
X53.131 Y27.898  
X53.131 Y28.501  
G00 Z5 
X52.931 Y28.301 
Z1.7 
G01 Z-0.6  
X50.928 Y28.301  
X50.928 Y28.098  
X52.931 Y28.098  
X52.931 Y28.301  
G00 Z5 
X53.131 Y28.501 
Z1.7 
G01 Z-0.6  
X50.728 Y28.501  
X50.728 Y27.898  
X53.131 Y27.898  
X53.131 Y28.501  
G00 Z5 
X52.931 Y26.301 S7000 M03
Z2 
G01 Z-0.3  
X50.928 Y26.301  
X50.928 Y26.098  
X52.931 Y26.098  
X52.931 Y26.301  
G00 Z5 
X53.131 Y26.501 
Z2 
G01 Z-0.3  
X50.728 Y26.501  
X50.728 Y25.898  
X53.131 Y25.898  
X53.131 Y26.501  
G00 Z5 
X52.931 Y26.301 
Z1.7 
G01 Z-0.6  
X50.928 Y26.301  
X50.928 Y26.098  
X52.931 Y26.098  
X52.931 Y26.301  
G00 Z5 
X53.131 Y26.501 
Z1.7 
G01 Z-0.6  
X50.728 Y26.501  
X50.728 Y25.898  
X53.131 Y25.898  
X53.131 Y26.501  
G00 Z5 
X52.931 Y24.301 S7000 M03
Z2 
G01 Z-0.3  
X50.928 Y24.301  
X50.928 Y24.098  
X52.931 Y24.098  
X52.931 Y24.301  
G00 Z5 
X53.131 Y24.501 
Z2 
G01 Z-0.3  
X50.728 Y24.501  
X50.728 Y23.898  
X53.131 Y23.898  
X53.131 Y24.501  
G00 Z5 
X52.931 Y24.301 
Z1.7 
G01 Z-0.6  
X50.928 Y24.301  
X50.928 Y24.098  
X52.931 Y24.098  
X52.931 Y24.301  
G00 Z5 
X53.131 Y24.501 
Z1.7 
G01 Z-0.6  
X50.728 Y24.501  
X50.728 Y23.898  
X53.131 Y23.898  
X53.131 Y24.501  
G00 Z5 
X52.931 Y22.301 S7000 M03
Z2 
G01 Z-0.3  
X50.928 Y22.301  
X50.928 Y22.098  
X52.931 Y22.098  
X52.931 Y22.301  
G00 Z5 
X53.131 Y22.501 
Z2 
G01 Z-0.3  
X50.728 Y22.501  
X50.728 Y21.898  
X53.131 Y21.898  
X53.131 Y22.501  
G00 Z5 
X52.931 Y22.301 
Z1.7 
G01 Z-0.6  
X50.928 Y22.301  
X50.928 Y22.098  
X52.931 Y22.098  
X52.931 Y22.301  
G00 Z5 
X53.131 Y22.501 
Z1.7 
G01 Z-0.6  
X50.728 Y22.501  
X50.728 Y21.898  
X53.131 Y21.898  
X53.131 Y22.501  
G00 Z5 
X52.931 Y20.301 S7000 M03
Z2 
G01 Z-0.3  
X50.928 Y20.301  
X50.928 Y20.098  
X52.931 Y20.098  
X52.931 Y20.301  
G00 Z5 
X53.131 Y20.501 
Z2 
G01 Z-0.3  
X50.728 Y20.501  
X50.728 Y19.898  
X53.131 Y19.898  
X53.131 Y20.501  
G00 Z5 
X52.931 Y20.301 
Z1.7 
G01 Z-0.6  
X50.928 Y20.301  
X50.928 Y20.098  
X52.931 Y20.098  
X52.931 Y20.301  
G00 Z5 
X53.131 Y20.501 
Z1.7 
G01 Z-0.6  
X50.728 Y20.501  
X50.728 Y19.898  
X53.131 Y19.898  
X53.131 Y20.501  
G00 Z5 
X54.131 Y18.301 S7000 M03
Z2 
G01 Z-0.3  
X53.928 Y18.301  
X53.928 Y16.297  
X54.131 Y16.297  
X54.131 Y18.301  
G00 Z5 
X54.331 Y18.501 
Z2 
G01 Z-0.3  
X53.728 Y18.501  
X53.728 Y16.098  
X54.331 Y16.098  
X54.331 Y18.501  
G00 Z5 
X54.131 Y18.301 
Z1.7 
G01 Z-0.6  
X53.928 Y18.301  
X53.928 Y16.297  
X54.131 Y16.297  
X54.131 Y18.301  
G00 Z5 
X54.331 Y18.501 
Z1.7 
G01 Z-0.6  
X53.728 Y18.501  
X53.728 Y16.098  
X54.331 Y16.098  
X54.331 Y18.501  
G00 Z5 
X56.131 Y18.301 S7000 M03
Z2 
G01 Z-0.3  
X55.928 Y18.301  
X55.928 Y16.297  
X56.131 Y16.297  
X56.131 Y18.301  
G00 Z5 
X56.331 Y18.501 
Z2 
G01 Z-0.3  
X55.728 Y18.501  
X55.728 Y16.098  
X56.331 Y16.098  
X56.331 Y18.501  
G00 Z5 
X56.131 Y18.301 
Z1.7 
G01 Z-0.6  
X55.928 Y18.301  
X55.928 Y16.297  
X56.131 Y16.297  
X56.131 Y18.301  
G00 Z5 
X56.331 Y18.501 
Z1.7 
G01 Z-0.6  
X55.728 Y18.501  
X55.728 Y16.098  
X56.331 Y16.098  
X56.331 Y18.501  
G00 Z5 
X58.131 Y18.301 S7000 M03
Z2 
G01 Z-0.3  
X57.928 Y18.301  
X57.928 Y16.297  
X58.131 Y16.297  
X58.131 Y18.301  
G00 Z5 
X58.331 Y18.501 
Z2 
G01 Z-0.3  
X57.728 Y18.501  
X57.728 Y16.098  
X58.331 Y16.098  
X58.331 Y18.501  
G00 Z5 
X58.131 Y18.301 
Z1.7 
G01 Z-0.6  
X57.928 Y18.301  
X57.928 Y16.297  
X58.131 Y16.297  
X58.131 Y18.301  
G00 Z5 
X58.331 Y18.501 
Z1.7 
G01 Z-0.6  
X57.728 Y18.501  
X57.728 Y16.098  
X58.331 Y16.098  
X58.331 Y18.501  
G00 Z5 
X60.131 Y18.301 S7000 M03
Z2 
G01 Z-0.3  
X59.928 Y18.301  
X59.928 Y16.297  
X60.131 Y16.297  
X60.131 Y18.301  
G00 Z5 
X60.331 Y18.501 
Z2 
G01 Z-0.3  
X59.728 Y18.501  
X59.728 Y16.098  
X60.331 Y16.098  
X60.331 Y18.501  
G00 Z5 
X60.131 Y18.301 
Z1.7 
G01 Z-0.6  
X59.928 Y18.301  
X59.928 Y16.297  
X60.131 Y16.297  
X60.131 Y18.301  
G00 Z5 
X60.331 Y18.501 
Z1.7 
G01 Z-0.6  
X59.728 Y18.501  
X59.728 Y16.098  
X60.331 Y16.098  
X60.331 Y18.501  
G00 Z5 
X62.131 Y18.301 S7000 M03
Z2 
G01 Z-0.3  
X61.928 Y18.301  
X61.928 Y16.297  
X62.131 Y16.297  
X62.131 Y18.301  
G00 Z5 
X62.331 Y18.501 
Z2 
G01 Z-0.3  
X61.728 Y18.501  
X61.728 Y16.098  
X62.331 Y16.098  
X62.331 Y18.501  
G00 Z5 
X62.131 Y18.301 
Z1.7 
G01 Z-0.6  
X61.928 Y18.301  
X61.928 Y16.297  
X62.131 Y16.297  
X62.131 Y18.301  
G00 Z5 
X62.331 Y18.501 
Z1.7 
G01 Z-0.6  
X61.728 Y18.501  
X61.728 Y16.098  
X62.331 Y16.098  
X62.331 Y18.501  
G00 Z5 
X64.131 Y18.301 S7000 M03
Z2 
G01 Z-0.3  
X63.928 Y18.301  
X63.928 Y16.297  
X64.131 Y16.297  
X64.131 Y18.301  
G00 Z5 
X64.331 Y18.501 
Z2 
G01 Z-0.3  
X63.728 Y18.501  
X63.728 Y16.098  
X64.331 Y16.098  
X64.331 Y18.501  
G00 Z5 
X64.131 Y18.301 
Z1.7 
G01 Z-0.6  
X63.928 Y18.301  
X63.928 Y16.297  
X64.131 Y16.297  
X64.131 Y18.301  
G00 Z5 
X64.331 Y18.501 
Z1.7 
G01 Z-0.6  
X63.728 Y18.501  
X63.728 Y16.098  
X64.331 Y16.098  
X64.331 Y18.501  
G00 Z5 
X66.131 Y18.301 S7000 M03
Z2 
G01 Z-0.3  
X65.928 Y18.301  
X65.928 Y16.297  
X66.131 Y16.297  
X66.131 Y18.301  
G00 Z5 
X66.331 Y18.501 
Z2 
G01 Z-0.3  
X65.728 Y18.501  
X65.728 Y16.098  
X66.331 Y16.098  
X66.331 Y18.501  
G00 Z5 
X66.131 Y18.301 
Z1.7 
G01 Z-0.6  
X65.928 Y18.301  
X65.928 Y16.297  
X66.131 Y16.297  
X66.131 Y18.301  
G00 Z5 
X66.331 Y18.501 
Z1.7 
G01 Z-0.6  
X65.728 Y18.501  
X65.728 Y16.098  
X66.331 Y16.098  
X66.331 Y18.501  
G00 Z5 
X68.131 Y18.301 S7000 M03
Z2 
G01 Z-0.3  
X67.928 Y18.301  
X67.928 Y16.297  
X68.131 Y16.297  
X68.131 Y18.301  
G00 Z5 
X68.331 Y18.501 
Z2 
G01 Z-0.3  
X67.728 Y18.501  
X67.728 Y16.098  
X68.331 Y16.098  
X68.331 Y18.501  
G00 Z5 
X68.131 Y18.301 
Z1.7 
G01 Z-0.6  
X67.928 Y18.301  
X67.928 Y16.297  
X68.131 Y16.297  
X68.131 Y18.301  
G00 Z5 
X68.331 Y18.501 
Z1.7 
G01 Z-0.6  
X67.728 Y18.501  
X67.728 Y16.098  
X68.331 Y16.098  
X68.331 Y18.501  
G00 Z5 
X67.141 Y14.221 S7000 M03
Z2 
G01 Z-0.3  
X66.838 Y14.221  
X66.838 Y13.718  
X67.141 Y13.718  
X67.141 Y14.221  
G00 Z5 
X67.341 Y14.421 
Z2 
G01 Z-0.3  
X66.638 Y14.421  
X66.638 Y13.518  
X67.341 Y13.518  
X67.341 Y14.421  
G00 Z5 
X67.141 Y14.221 
Z1.7 
G01 Z-0.6  
X66.838 Y14.221  
X66.838 Y13.718  
X67.141 Y13.718  
X67.141 Y14.221  
G00 Z5 
X67.341 Y14.421 
Z1.7 
G01 Z-0.6  
X66.638 Y14.421  
X66.638 Y13.518  
X67.341 Y13.518  
X67.341 Y14.421  
G00 Z5 
X65.241 Y14.221 S7000 M03
Z2 
G01 Z-0.3  
X64.938 Y14.221  
X64.938 Y13.718  
X65.241 Y13.718  
X65.241 Y14.221  
G00 Z5 
X65.441 Y14.421 
Z2 
G01 Z-0.3  
X64.738 Y14.421  
X64.738 Y13.518  
X65.441 Y13.518  
X65.441 Y14.421  
G00 Z5 
X65.241 Y14.221 
Z1.7 
G01 Z-0.6  
X64.938 Y14.221  
X64.938 Y13.718  
X65.241 Y13.718  
X65.241 Y14.221  
G00 Z5 
X65.441 Y14.421 
Z1.7 
G01 Z-0.6  
X64.738 Y14.421  
X64.738 Y13.518  
X65.441 Y13.518  
X65.441 Y14.421  
G00 Z5 
X67.141 Y10.411 S7000 M03
Z2 
G01 Z-0.3  
X66.838 Y10.411  
X66.838 Y9.908  
X67.141 Y9.908  
X67.141 Y10.411  
G00 Z5 
X67.341 Y10.611 
Z2 
G01 Z-0.3  
X66.638 Y10.611  
X66.638 Y9.708  
X67.341 Y9.708  
X67.341 Y10.611  
G00 Z5 
X67.141 Y10.411 
Z1.7 
G01 Z-0.6  
X66.838 Y10.411  
X66.838 Y9.908  
X67.141 Y9.908  
X67.141 Y10.411  
G00 Z5 
X67.341 Y10.611 
Z1.7 
G01 Z-0.6  
X66.638 Y10.611  
X66.638 Y9.708  
X67.341 Y9.708  
X67.341 Y10.611  
G00 Z5 
X65.241 Y10.411 S7000 M03
Z2 
G01 Z-0.3  
X64.938 Y10.411  
X64.938 Y9.908  
X65.241 Y9.908  
X65.241 Y10.411  
G00 Z5 
X65.441 Y10.611 
Z2 
G01 Z-0.3  
X64.738 Y10.611  
X64.738 Y9.708  
X65.441 Y9.708  
X65.441 Y10.611  
G00 Z5 
X65.241 Y10.411 
Z1.7 
G01 Z-0.6  
X64.938 Y10.411  
X64.938 Y9.908  
X65.241 Y9.908  
X65.241 Y10.411  
G00 Z5 
X65.441 Y10.611 
Z1.7 
G01 Z-0.6  
X64.738 Y10.611  
X64.738 Y9.708  
X65.441 Y9.708  
X65.441 Y10.611  
G00 Z5 
X60.791 Y14.221 S7000 M03
Z2 
G01 Z-0.3  
X60.488 Y14.221  
X60.488 Y13.718  
X60.791 Y13.718  
X60.791 Y14.221  
G00 Z5 
X60.991 Y14.421 
Z2 
G01 Z-0.3  
X60.288 Y14.421  
X60.288 Y13.518  
X60.991 Y13.518  
X60.991 Y14.421  
G00 Z5 
X60.791 Y14.221 
Z1.7 
G01 Z-0.6  
X60.488 Y14.221  
X60.488 Y13.718  
X60.791 Y13.718  
X60.791 Y14.221  
G00 Z5 
X60.991 Y14.421 
Z1.7 
G01 Z-0.6  
X60.288 Y14.421  
X60.288 Y13.518  
X60.991 Y13.518  
X60.991 Y14.421  
G00 Z5 
X58.891 Y14.221 S7000 M03
Z2 
G01 Z-0.3  
X58.588 Y14.221  
X58.588 Y13.718  
X58.891 Y13.718  
X58.891 Y14.221  
G00 Z5 
X59.091 Y14.421 
Z2 
G01 Z-0.3  
X58.388 Y14.421  
X58.388 Y13.518  
X59.091 Y13.518  
X59.091 Y14.421  
G00 Z5 
X58.891 Y14.221 
Z1.7 
G01 Z-0.6  
X58.588 Y14.221  
X58.588 Y13.718  
X58.891 Y13.718  
X58.891 Y14.221  
G00 Z5 
X59.091 Y14.421 
Z1.7 
G01 Z-0.6  
X58.388 Y14.421  
X58.388 Y13.518  
X59.091 Y13.518  
X59.091 Y14.421  
G00 Z5 
X60.791 Y10.411 S7000 M03
Z2 
G01 Z-0.3  
X60.488 Y10.411  
X60.488 Y9.908  
X60.791 Y9.908  
X60.791 Y10.411  
G00 Z5 
X60.991 Y10.611 
Z2 
G01 Z-0.3  
X60.288 Y10.611  
X60.288 Y9.708  
X60.991 Y9.708  
X60.991 Y10.611  
G00 Z5 
X60.791 Y10.411 
Z1.7 
G01 Z-0.6  
X60.488 Y10.411  
X60.488 Y9.908  
X60.791 Y9.908  
X60.791 Y10.411  
G00 Z5 
X60.991 Y10.611 
Z1.7 
G01 Z-0.6  
X60.288 Y10.611  
X60.288 Y9.708  
X60.991 Y9.708  
X60.991 Y10.611  
G00 Z5 
X58.891 Y10.411 S7000 M03
Z2 
G01 Z-0.3  
X58.588 Y10.411  
X58.588 Y9.908  
X58.891 Y9.908  
X58.891 Y10.411  
G00 Z5 
X59.091 Y10.611 
Z2 
G01 Z-0.3  
X58.388 Y10.611  
X58.388 Y9.708  
X59.091 Y9.708  
X59.091 Y10.611  
G00 Z5 
X58.891 Y10.411 
Z1.7 
G01 Z-0.6  
X58.588 Y10.411  
X58.588 Y9.908  
X58.891 Y9.908  
X58.891 Y10.411  
G00 Z5 
X59.091 Y10.611 
Z1.7 
G01 Z-0.6  
X58.388 Y10.611  
X58.388 Y9.708  
X59.091 Y9.708  
X59.091 Y10.611  
G00 Z5 
X55.711 Y12.951 S7000 M03
Z2 
G01 Z-0.3  
X55.408 Y12.951  
X55.408 Y12.448  
X55.711 Y12.448  
X55.711 Y12.951  
G00 Z5 
X55.911 Y13.151 
Z2 
G01 Z-0.3  
X55.208 Y13.151  
X55.208 Y12.248  
X55.911 Y12.248  
X55.911 Y13.151  
G00 Z5 
X55.711 Y12.951 
Z1.7 
G01 Z-0.6  
X55.408 Y12.951  
X55.408 Y12.448  
X55.711 Y12.448  
X55.711 Y12.951  
G00 Z5 
X55.911 Y13.151 
Z1.7 
G01 Z-0.6  
X55.208 Y13.151  
X55.208 Y12.248  
X55.911 Y12.248  
X55.911 Y13.151  
G00 Z5 
X53.811 Y12.951 S7000 M03
Z2 
G01 Z-0.3  
X53.508 Y12.951  
X53.508 Y12.448  
X53.811 Y12.448  
X53.811 Y12.951  
G00 Z5 
X54.011 Y13.151 
Z2 
G01 Z-0.3  
X53.308 Y13.151  
X53.308 Y12.248  
X54.011 Y12.248  
X54.011 Y13.151  
G00 Z5 
X53.811 Y12.951 
Z1.7 
G01 Z-0.6  
X53.508 Y12.951  
X53.508 Y12.448  
X53.811 Y12.448  
X53.811 Y12.951  
G00 Z5 
X54.011 Y13.151 
Z1.7 
G01 Z-0.6  
X53.308 Y13.151  
X53.308 Y12.248  
X54.011 Y12.248  
X54.011 Y13.151  
G00 Z5 
X8.931 Y26.551 S7000 M03
Z2 
G01 Z-0.3  
X8.88 Y26.551  
X8.88 Y24.248  
X8.931 Y24.248  
X8.931 Y26.551  
G00 Z5 
X9.131 Y26.751 
Z2 
G01 Z-0.3  
X8.68 Y26.751  
X8.68 Y24.048  
X9.131 Y24.048  
X9.131 Y26.751  
G00 Z5 
X9.331 Y26.951 
Z2 
G01 Z-0.3  
X8.48 Y26.951  
X8.48 Y23.848  
X9.331 Y23.848  
X9.331 Y26.951  
G00 Z5 
X8.931 Y26.551 
Z1.7 
G01 Z-0.6  
X8.88 Y26.551  
X8.88 Y24.248  
X8.931 Y24.248  
X8.931 Y26.551  
G00 Z5 
X9.131 Y26.751 
Z1.7 
G01 Z-0.6  
X8.68 Y26.751  
X8.68 Y24.048  
X9.131 Y24.048  
X9.131 Y26.751  
G00 Z5 
X9.331 Y26.951 
Z1.7 
G01 Z-0.6  
X8.48 Y26.951  
X8.48 Y23.848  
X9.331 Y23.848  
X9.331 Y26.951  
G00 Z5 
T0 M06 M02
