(Created with emc2b post processor 2017/06/10 14:13)
(tool change to 1 mm End Mill)
T1 M06 G43
G17 G90 G21
(Sketch 2)
G00 X2.08 Y30.451 S7000 M03
Z2 
G01 Z-0.5 F150 
X2.931 Y30.451 F75 
X2.931 Y29.248  
X1.228 Y29.248  
X1.228 Y30.451  
X2.08 Y30.451  
G00 Z5 
G90
(Sketch 3)
X7.98 Y30.451 S7000 M03
Z2 
G01 Z-0.5 F150 
X9.231 Y30.451 F75 
X9.231 Y29.248  
X6.728 Y29.248  
X6.728 Y30.451  
X7.98 Y30.451  
G00 Z5 
G90
(Sketch 4)
G90
(Sketch 5)
G90
(Sketch 6)
G90
(Sketch 7)
G90
(Sketch 8)
G90
(Sketch 9)
X2.08 Y21.551 S7000 M03
Z2 
G01 Z-0.5 F150 
X2.931 Y21.551 F75 
X2.931 Y20.348  
X1.228 Y20.348  
X1.228 Y21.551  
X2.08 Y21.551  
G00 Z5 
G90
(Sketch 10)
X7.98 Y21.551 S7000 M03
Z2 
G01 Z-0.5 F150 
X9.231 Y21.551 F75 
X9.231 Y20.348  
X6.728 Y20.348  
X6.728 Y21.551  
X7.98 Y21.551  
G00 Z5 
G90
(Sketch 11)
X10.731 Y33.02 S7000 M03
Z2 
G01 Z-0.5 F150 
X10.731 Y32.668 F75 
X10.228 Y32.668  
X10.228 Y33.371  
X10.731 Y33.371  
X10.731 Y33.02  
G00 Z5 
G90
(Sketch 12)
X12.631 Y33.02 S7000 M03
Z2 
G01 Z-0.5 F150 
X12.631 Y32.668 F75 
X12.128 Y32.668  
X12.128 Y33.371  
X12.631 Y33.371  
X12.631 Y33.02  
G00 Z5 
G90
(Sketch 13)
X11.43 Y30.311 S7000 M03
Z2 
G01 Z-0.5 F150 
X11.531 Y30.311 F75 
X11.531 Y30.108  
X11.328 Y30.108  
X11.328 Y30.311  
X11.43 Y30.311  
G00 Z5 
G90
(Sketch 14)
X11.43 Y28.311 S7000 M03
Z2 
G01 Z-0.5 F150 
X11.531 Y28.311 F75 
X11.531 Y28.108  
X11.328 Y28.108  
X11.328 Y28.311  
X11.43 Y28.311  
G00 Z5 
G90
(Sketch 15)
X11.43 Y21.521 S7000 M03
Z2 
G01 Z-0.5 F150 
X11.781 Y21.521 F75 
X11.781 Y21.018  
X11.078 Y21.018  
X11.078 Y21.521  
X11.43 Y21.521  
G00 Z5 
G90
(Sketch 16)
X11.43 Y19.621 S7000 M03
Z2 
G01 Z-0.5 F150 
X11.781 Y19.621 F75 
X11.781 Y19.118  
X11.078 Y19.118  
X11.078 Y19.621  
X11.43 Y19.621  
G00 Z5 
G90
(Sketch 17)
X14.171 Y30.26 S7000 M03
Z2 
G01 Z-0.5 F150 
X14.171 Y30.058 F75 
X13.768 Y30.058  
X13.768 Y30.461  
X14.171 Y30.461  
X14.171 Y30.26  
G00 Z5 
G90
(Sketch 18)
X13.97 Y28.361 S7000 M03
Z2 
G01 Z-0.5 F150 
X14.171 Y28.361 F75 
X14.171 Y27.958  
X13.768 Y27.958  
X13.768 Y28.361  
X13.97 Y28.361  
G00 Z5 
G90
(Sketch 19)
X16.51 Y30.411 S7000 M03
Z2 
G01 Z-0.5 F150 
X16.861 Y30.411 F75 
X16.861 Y29.908  
X16.158 Y29.908  
X16.158 Y30.411  
X16.51 Y30.411  
G00 Z5 
G90
(Sketch 20)
X16.51 Y28.511 S7000 M03
Z2 
G01 Z-0.5 F150 
X16.861 Y28.511 F75 
X16.861 Y28.008  
X16.158 Y28.008  
X16.158 Y28.511  
X16.51 Y28.511  
G00 Z5 
G90
(Sketch 21)
X14.541 Y22.86 S7000 M03
Z2 
G01 Z-0.5 F150 
X14.541 Y22.508 F75 
X14.038 Y22.508  
X14.038 Y23.211  
X14.541 Y23.211  
X14.541 Y22.86  
G00 Z5 
G90
(Sketch 22)
X16.441 Y22.86 S7000 M03
Z2 
G01 Z-0.5 F150 
X16.441 Y22.508 F75 
X15.938 Y22.508  
X15.938 Y23.211  
X16.441 Y23.211  
X16.441 Y22.86  
G00 Z5 
G90
(Sketch 23)
X19.05 Y23.426 S7000 M03
Z2 
G01 Z-0.5 F150 
X19.401 Y23.426 F75 
X19.401 Y22.923  
X18.698 Y22.923  
X18.698 Y23.426  
X19.05 Y23.426  
G00 Z5 
G90
(Sketch 24)
X19.05 Y21.526 S7000 M03
Z2 
G01 Z-0.5 F150 
X19.401 Y21.526 F75 
X19.401 Y21.023  
X18.698 Y21.023  
X18.698 Y21.526  
X19.05 Y21.526  
G00 Z5 
G90
(Sketch 25)
X19.05 Y19.666 S7000 M03
Z2 
G01 Z-0.5 F150 
X19.251 Y19.666 F75 
X19.251 Y19.263  
X18.848 Y19.263  
X18.848 Y19.666  
X19.05 Y19.666  
G00 Z5 
G90
(Sketch 26)
X19.251 Y17.365 S7000 M03
Z2 
G01 Z-0.5 F150 
X19.251 Y17.163 F75 
X18.848 Y17.163  
X18.848 Y17.566  
X19.251 Y17.566  
X19.251 Y17.365  
G00 Z5 
G90
(Sketch 27)
X17.081 Y13.97 S7000 M03
Z2 
G01 Z-0.5 F150 
X17.081 Y13.618 F75 
X16.578 Y13.618  
X16.578 Y14.321  
X17.081 Y14.321  
X17.081 Y13.97  
G00 Z5 
G90
(Sketch 28)
X18.981 Y13.97 S7000 M03
Z2 
G01 Z-0.5 F150 
X18.981 Y13.618 F75 
X18.478 Y13.618  
X18.478 Y14.321  
X18.981 Y14.321  
X18.981 Y13.97  
G00 Z5 
G90
(Sketch 29)
X21.526 Y13.97 S7000 M03
Z2 
G01 Z-0.5 F150 
X21.526 Y13.618 F75 
X21.023 Y13.618  
X21.023 Y14.321  
X21.526 Y14.321  
X21.526 Y13.97  
G00 Z5 
G90
(Sketch 30)
X23.426 Y13.97 S7000 M03
Z2 
G01 Z-0.5 F150 
X23.426 Y13.618 F75 
X22.923 Y13.618  
X22.923 Y14.321  
X23.426 Y14.321  
X23.426 Y13.97  
G00 Z5 
G90
(Sketch 31)
X24.13 Y23.426 S7000 M03
Z2 
G01 Z-0.5 F150 
X24.481 Y23.426 F75 
X24.481 Y22.923  
X23.778 Y22.923  
X23.778 Y23.426  
X24.13 Y23.426  
G00 Z5 
G90
(Sketch 32)
X24.13 Y21.526 S7000 M03
Z2 
G01 Z-0.5 F150 
X24.481 Y21.526 F75 
X24.481 Y21.023  
X23.778 Y21.023  
X23.778 Y21.526  
X24.13 Y21.526  
G00 Z5 
G90
(Sketch 33)
X24.13 Y19.666 S7000 M03
Z2 
G01 Z-0.5 F150 
X24.331 Y19.666 F75 
X24.331 Y19.263  
X23.928 Y19.263  
X23.928 Y19.666  
X24.13 Y19.666  
G00 Z5 
G90
(Sketch 34)
X24.13 Y17.566 S7000 M03
Z2 
G01 Z-0.5 F150 
X24.331 Y17.566 F75 
X24.331 Y17.163  
X23.928 Y17.163  
X23.928 Y17.566  
X24.13 Y17.566  
G00 Z5 
G90
(Sketch 35)
G90
(Sketch 36)
G90
(Sketch 37)
X14.983 Y36.01 S7000 M03
Z2 
G01 Z-0.5 F150 
X14.983 Y36.361 F75 
X15.486 Y36.361  
X15.486 Y35.658  
X14.983 Y35.658  
X14.983 Y36.01  
G00 Z5 
G90
(Sketch 38)
X16.883 Y36.01 S7000 M03
Z2 
G01 Z-0.5 F150 
X16.883 Y36.361 F75 
X17.386 Y36.361  
X17.386 Y35.658  
X16.883 Y35.658  
X16.883 Y36.01  
G00 Z5 
G90
(Sketch 39)
X19.118 Y36.83 S7000 M03
Z2 
G01 Z-0.5 F150 
X19.118 Y37.181 F75 
X19.621 Y37.181  
X19.621 Y36.478  
X19.118 Y36.478  
X19.118 Y36.83  
G00 Z5 
G90
(Sketch 40)
X21.018 Y36.83 S7000 M03
Z2 
G01 Z-0.5 F150 
X21.018 Y37.181 F75 
X21.521 Y37.181  
X21.521 Y36.478  
X21.018 Y36.478  
X21.018 Y36.83  
G00 Z5 
G90
(Sketch 41)
X25.4 Y36.131 S7000 M03
Z2 
G01 Z-0.5 F150 
X25.751 Y36.131 F75 
X25.751 Y35.628  
X25.048 Y35.628  
X25.048 Y36.131  
X25.4 Y36.131  
G00 Z5 
G90
(Sketch 42)
X25.4 Y38.031 S7000 M03
Z2 
G01 Z-0.5 F150 
X25.751 Y38.031 F75 
X25.751 Y37.528  
X25.048 Y37.528  
X25.048 Y38.031  
X25.4 Y38.031  
G00 Z5 
G90
(Sketch 43)
X28.158 Y35.73 S7000 M03
Z2 
G01 Z-0.5 F150 
X28.158 Y36.031 F75 
X28.361 Y36.031  
X28.361 Y35.428  
X28.158 Y35.428  
X28.158 Y35.73  
G00 Z5 
G90
(Sketch 44)
X30.058 Y35.73 S7000 M03
Z2 
G01 Z-0.5 F150 
X30.058 Y36.031 F75 
X30.261 Y36.031  
X30.261 Y35.428  
X30.058 Y35.428  
X30.058 Y35.73  
G00 Z5 
G90
(Sketch 45)
X29.108 Y37.93 S7000 M03
Z2 
G01 Z-0.5 F150 
X29.108 Y38.231 F75 
X29.311 Y38.231  
X29.311 Y37.628  
X29.108 Y37.628  
X29.108 Y37.93  
G00 Z5 
G90
(Sketch 46)
X30.48 Y31.681 S7000 M03
Z2 
G01 Z-0.5 F150 
X30.831 Y31.681 F75 
X30.831 Y31.178  
X30.128 Y31.178  
X30.128 Y31.681  
X30.48 Y31.681  
G00 Z5 
G90
(Sketch 47)
X30.48 Y29.781 S7000 M03
Z2 
G01 Z-0.5 F150 
X30.831 Y29.781 F75 
X30.831 Y29.278  
X30.128 Y29.278  
X30.128 Y29.781  
X30.48 Y29.781  
G00 Z5 
G90
(Sketch 48)
X30.602 Y23.554 S7000 M03
Z2 
G01 Z-0.5 F150 
X30.954 Y23.554 F75 
X30.954 Y23.05  
X30.25 Y23.05  
X30.25 Y23.554  
X30.602 Y23.554  
G00 Z5 
G90
(Sketch 49)
X30.602 Y21.654 S7000 M03
Z2 
G01 Z-0.5 F150 
X30.954 Y21.654 F75 
X30.954 Y21.15  
X30.25 Y21.15  
X30.25 Y21.654  
X30.602 Y21.654  
G00 Z5 
G90
(Sketch 50)
X33.088 Y15.24 S7000 M03
Z2 
G01 Z-0.5 F150 
X33.088 Y15.591 F75 
X33.591 Y15.591  
X33.591 Y14.888  
X33.088 Y14.888  
X33.088 Y15.24  
G00 Z5 
G90
(Sketch 51)
X34.988 Y15.24 S7000 M03
Z2 
G01 Z-0.5 F150 
X34.988 Y15.591 F75 
X35.491 Y15.591  
X35.491 Y14.888  
X34.988 Y14.888  
X34.988 Y15.24  
G00 Z5 
G90
(Sketch 52)
X33.799 Y21.844 S7000 M03
Z2 
G01 Z-0.5 F150 
X33.799 Y23.985 F75 
X34.78 Y23.985  
X34.78 Y19.702  
X33.799 Y19.702  
X33.799 Y21.844  
G00 Z5 
G90
(Sketch 53)
X33.799 Y31.496 S7000 M03
Z2 
G01 Z-0.5 F150 
X33.799 Y33.637 F75 
X34.78 Y33.637  
X34.78 Y29.354  
X33.799 Y29.354  
X33.799 Y31.496  
G00 Z5 
G90
(Sketch 54)
X35.56 Y36.821 S7000 M03
Z2 
G01 Z-0.5 F150 
X37.061 Y36.821 F75 
X37.061 Y35.618  
X34.058 Y35.618  
X34.058 Y36.821  
X35.56 Y36.821  
G00 Z5 
G90
(Sketch 55)
X25.298 Y40.81 S7000 M03
Z2 
G01 Z-0.5 F150 
X25.298 Y41.111 F75 
X25.501 Y41.111  
X25.501 Y40.508  
X25.298 Y40.508  
X25.298 Y40.81  
G00 Z5 
G90
(Sketch 56)
X24.348 Y43.01 S7000 M03
Z2 
G01 Z-0.5 F150 
X24.348 Y43.311 F75 
X24.551 Y43.311  
X24.551 Y42.708  
X24.348 Y42.708  
X24.348 Y43.01  
G00 Z5 
G90
(Sketch 57)
X26.248 Y43.01 S7000 M03
Z2 
G01 Z-0.5 F150 
X26.248 Y43.311 F75 
X26.451 Y43.311  
X26.451 Y42.708  
X26.248 Y42.708  
X26.248 Y43.01  
G00 Z5 
G90
(Sketch 58)
X29.21 Y41.211 S7000 M03
Z2 
G01 Z-0.5 F150 
X29.561 Y41.211 F75 
X29.561 Y40.708  
X28.858 Y40.708  
X28.858 Y41.211  
X29.21 Y41.211  
G00 Z5 
G90
(Sketch 59)
X29.21 Y43.111 S7000 M03
Z2 
G01 Z-0.5 F150 
X29.561 Y43.111 F75 
X29.561 Y42.608  
X28.858 Y42.608  
X28.858 Y43.111  
X29.21 Y43.111  
G00 Z5 
G90
(Sketch 60)
X32.908 Y42.52 S7000 M03
Z2 
G01 Z-0.5 F150 
X32.908 Y43.121 F75 
X33.611 Y43.121  
X33.611 Y41.918  
X32.908 Y41.918  
X32.908 Y42.52  
G00 Z5 
G90
(Sketch 61)
X35.208 Y42.52 S7000 M03
Z2 
G01 Z-0.5 F150 
X35.208 Y43.121 F75 
X35.911 Y43.121  
X35.911 Y41.918  
X35.208 Y41.918  
X35.208 Y42.52  
G00 Z5 
G90
(Sketch 62)
X37.508 Y42.52 S7000 M03
Z2 
G01 Z-0.5 F150 
X37.508 Y43.121 F75 
X38.211 Y43.121  
X38.211 Y41.918  
X37.508 Y41.918  
X37.508 Y42.52  
G00 Z5 
G90
(Sketch 63)
X40.708 Y41.91 S7000 M03
Z2 
G01 Z-0.5 F150 
X40.708 Y42.261 F75 
X41.211 Y42.261  
X41.211 Y41.558  
X40.708 Y41.558  
X40.708 Y41.91  
G00 Z5 
G90
(Sketch 64)
X42.608 Y41.91 S7000 M03
Z2 
G01 Z-0.5 F150 
X42.608 Y42.261 F75 
X43.111 Y42.261  
X43.111 Y41.558  
X42.608 Y41.558  
X42.608 Y41.91  
G00 Z5 
G90
(Sketch 65)
X40.64 Y38.031 S7000 M03
Z2 
G01 Z-0.5 F150 
X40.991 Y38.031 F75 
X40.991 Y37.528  
X40.288 Y37.528  
X40.288 Y38.031  
X40.64 Y38.031  
G00 Z5 
G90
(Sketch 66)
X40.64 Y36.131 S7000 M03
Z2 
G01 Z-0.5 F150 
X40.991 Y36.131 F75 
X40.991 Y35.628  
X40.288 Y35.628  
X40.288 Y36.131  
X40.64 Y36.131  
G00 Z5 
G90
(Sketch 67)
X41.91 Y33.001 S7000 M03
Z2 
G01 Z-0.5 F150 
X42.111 Y33.001 F75 
X42.111 Y32.598  
X41.708 Y32.598  
X41.708 Y33.001  
X41.91 Y33.001  
G00 Z5 
G90
(Sketch 68)
X41.91 Y30.901 S7000 M03
Z2 
G01 Z-0.5 F150 
X42.111 Y30.901 F75 
X42.111 Y30.498  
X41.708 Y30.498  
X41.708 Y30.901  
X41.91 Y30.901  
G00 Z5 
G90
(Sketch 69)
X39.205 Y27.901 S7000 M03
Z2 
G01 Z-0.5 F150 
X39.581 Y27.901 F75 
X39.581 Y27.398  
X38.828 Y27.398  
X38.828 Y27.901  
X39.205 Y27.901  
G00 Z5 
G90
(Sketch 70)
X39.205 Y23.401 S7000 M03
Z2 
G01 Z-0.5 F150 
X39.581 Y23.401 F75 
X39.581 Y22.898  
X38.828 Y22.898  
X38.828 Y23.401  
X39.205 Y23.401  
G00 Z5 
G90
(Sketch 71)
X39.911 Y20.485 S7000 M03
Z2 
G01 Z-0.5 F150 
X39.911 Y20.108 F75 
X39.408 Y20.108  
X39.408 Y20.861  
X39.911 Y20.861  
X39.911 Y20.485  
G00 Z5 
G90
(Sketch 72)
X39.911 Y12.535 S7000 M03
Z2 
G01 Z-0.5 F150 
X39.911 Y12.158 F75 
X39.408 Y12.158  
X39.408 Y12.911  
X39.911 Y12.911  
X39.911 Y12.535  
G00 Z5 
G90
(Sketch 73)
X44.411 Y12.535 S7000 M03
Z2 
G01 Z-0.5 F150 
X44.411 Y12.158 F75 
X43.908 Y12.158  
X43.908 Y12.911  
X44.411 Y12.911  
X44.411 Y12.535  
G00 Z5 
G90
(Sketch 74)
X43.908 Y20.485 S7000 M03
Z2 
G01 Z-0.5 F150 
X43.908 Y20.861 F75 
X44.411 Y20.861  
X44.411 Y20.108  
X43.908 Y20.108  
X43.908 Y20.485  
G00 Z5 
G90
(Sketch 75)
X48.26 Y18.351 S7000 M03
Z2 
G01 Z-0.5 F150 
X48.611 Y18.351 F75 
X48.611 Y17.848  
X47.908 Y17.848  
X47.908 Y18.351  
X48.26 Y18.351  
G00 Z5 
G90
(Sketch 76)
X48.26 Y20.251 S7000 M03
Z2 
G01 Z-0.5 F150 
X48.611 Y20.251 F75 
X48.611 Y19.748  
X47.908 Y19.748  
X47.908 Y20.251  
X48.26 Y20.251  
G00 Z5 
G90
(Sketch 77)
X47.155 Y23.401 S7000 M03
Z2 
G01 Z-0.5 F150 
X47.531 Y23.401 F75 
X47.531 Y22.898  
X46.778 Y22.898  
X46.778 Y23.401  
X47.155 Y23.401  
G00 Z5 
G90
(Sketch 78)
X47.155 Y27.901 S7000 M03
Z2 
G01 Z-0.5 F150 
X47.531 Y27.901 F75 
X47.531 Y27.398  
X46.778 Y27.398  
X46.778 Y27.901  
X47.155 Y27.901  
G00 Z5 
G90
(Sketch 79)
X45.72 Y31.051 S7000 M03
Z2 
G01 Z-0.5 F150 
X46.071 Y31.051 F75 
X46.071 Y30.548  
X45.368 Y30.548  
X45.368 Y31.051  
X45.72 Y31.051  
G00 Z5 
G90
(Sketch 80)
X45.72 Y32.951 S7000 M03
Z2 
G01 Z-0.5 F150 
X46.071 Y32.951 F75 
X46.071 Y32.448  
X45.368 Y32.448  
X45.368 Y32.951  
X45.72 Y32.951  
G00 Z5 
G90
(Sketch 81)
X45.72 Y36.131 S7000 M03
Z2 
G01 Z-0.5 F150 
X46.071 Y36.131 F75 
X46.071 Y35.628  
X45.368 Y35.628  
X45.368 Y36.131  
X45.72 Y36.131  
G00 Z5 
G90
(Sketch 82)
X45.72 Y38.031 S7000 M03
Z2 
G01 Z-0.5 F150 
X46.071 Y38.031 F75 
X46.071 Y37.528  
X45.368 Y37.528  
X45.368 Y38.031  
X45.72 Y38.031  
G00 Z5 
G90
(Sketch 83)
X50.8 Y38.031 S7000 M03
Z2 
G01 Z-0.5 F150 
X51.151 Y38.031 F75 
X51.151 Y37.528  
X50.448 Y37.528  
X50.448 Y38.031  
X50.8 Y38.031  
G00 Z5 
G90
(Sketch 84)
X50.8 Y36.131 S7000 M03
Z2 
G01 Z-0.5 F150 
X51.151 Y36.131 F75 
X51.151 Y35.628  
X50.448 Y35.628  
X50.448 Y36.131  
X50.8 Y36.131  
G00 Z5 
G90
(Sketch 85)
X57.15 Y39.301 S7000 M03
Z2 
G01 Z-0.5 F150 
X57.501 Y39.301 F75 
X57.501 Y38.798  
X56.798 Y38.798  
X56.798 Y39.301  
X57.15 Y39.301  
G00 Z5 
G90
(Sketch 86)
X57.15 Y37.401 S7000 M03
Z2 
G01 Z-0.5 F150 
X57.501 Y37.401 F75 
X57.501 Y36.898  
X56.798 Y36.898  
X56.798 Y37.401  
X57.15 Y37.401  
G00 Z5 
G90
(Sketch 87)
X60.261 Y41.91 S7000 M03
Z2 
G01 Z-0.5 F150 
X60.261 Y41.558 F75 
X59.758 Y41.558  
X59.758 Y42.261  
X60.261 Y42.261  
X60.261 Y41.91  
G00 Z5 
G90
(Sketch 88)
X62.161 Y41.91 S7000 M03
Z2 
G01 Z-0.5 F150 
X62.161 Y41.558 F75 
X61.658 Y41.558  
X61.658 Y42.261  
X62.161 Y42.261  
X62.161 Y41.91  
G00 Z5 
G90
(Sketch 89)
X63.5 Y39.301 S7000 M03
Z2 
G01 Z-0.5 F150 
X63.851 Y39.301 F75 
X63.851 Y38.798  
X63.148 Y38.798  
X63.148 Y39.301  
X63.5 Y39.301  
G00 Z5 
G90
(Sketch 90)
X63.5 Y37.401 S7000 M03
Z2 
G01 Z-0.5 F150 
X63.851 Y37.401 F75 
X63.851 Y36.898  
X63.148 Y36.898  
X63.148 Y37.401  
X63.5 Y37.401  
G00 Z5 
G90
(Sketch 91)
X67.31 Y39.301 S7000 M03
Z2 
G01 Z-0.5 F150 
X67.661 Y39.301 F75 
X67.661 Y38.798  
X66.958 Y38.798  
X66.958 Y39.301  
X67.31 Y39.301  
G00 Z5 
G90
(Sketch 92)
X67.31 Y37.401 S7000 M03
Z2 
G01 Z-0.5 F150 
X67.661 Y37.401 F75 
X67.661 Y36.898  
X66.958 Y36.898  
X66.958 Y37.401  
X67.31 Y37.401  
G00 Z5 
G90
(Sketch 93)
X68.231 Y33.7 S7000 M03
Z2 
G01 Z-0.5 F150 
X68.231 Y32.598 F75 
X67.828 Y32.598  
X67.828 Y34.801  
X68.231 Y34.801  
X68.231 Y33.7  
G00 Z5 
G90
(Sketch 94)
X66.231 Y33.7 S7000 M03
Z2 
G01 Z-0.5 F150 
X66.231 Y32.598 F75 
X65.828 Y32.598  
X65.828 Y34.801  
X66.231 Y34.801  
X66.231 Y33.7  
G00 Z5 
G90
(Sketch 95)
X64.231 Y33.7 S7000 M03
Z2 
G01 Z-0.5 F150 
X64.231 Y32.598 F75 
X63.828 Y32.598  
X63.828 Y34.801  
X64.231 Y34.801  
X64.231 Y33.7  
G00 Z5 
G90
(Sketch 96)
X62.231 Y33.7 S7000 M03
Z2 
G01 Z-0.5 F150 
X62.231 Y32.598 F75 
X61.828 Y32.598  
X61.828 Y34.801  
X62.231 Y34.801  
X62.231 Y33.7  
G00 Z5 
G90
(Sketch 97)
X60.231 Y33.7 S7000 M03
Z2 
G01 Z-0.5 F150 
X60.231 Y32.598 F75 
X59.828 Y32.598  
X59.828 Y34.801  
X60.231 Y34.801  
X60.231 Y33.7  
G00 Z5 
G90
(Sketch 98)
X58.231 Y33.7 S7000 M03
Z2 
G01 Z-0.5 F150 
X58.231 Y32.598 F75 
X57.828 Y32.598  
X57.828 Y34.801  
X58.231 Y34.801  
X58.231 Y33.7  
G00 Z5 
G90
(Sketch 99)
X56.231 Y33.7 S7000 M03
Z2 
G01 Z-0.5 F150 
X56.231 Y32.598 F75 
X55.828 Y32.598  
X55.828 Y34.801  
X56.231 Y34.801  
X56.231 Y33.7  
G00 Z5 
G90
(Sketch 100)
X54.231 Y33.7 S7000 M03
Z2 
G01 Z-0.5 F150 
X54.231 Y32.598 F75 
X53.828 Y32.598  
X53.828 Y34.801  
X54.231 Y34.801  
X54.231 Y33.7  
G00 Z5 
G90
(Sketch 101)
X51.93 Y30.401 S7000 M03
Z2 
G01 Z-0.5 F150 
X53.031 Y30.401 F75 
X53.031 Y29.998  
X50.828 Y29.998  
X50.828 Y30.401  
X51.93 Y30.401  
G00 Z5 
G90
(Sketch 102)
X51.93 Y28.401 S7000 M03
Z2 
G01 Z-0.5 F150 
X53.031 Y28.401 F75 
X53.031 Y27.998  
X50.828 Y27.998  
X50.828 Y28.401  
X51.93 Y28.401  
G00 Z5 
G90
(Sketch 103)
X51.93 Y26.401 S7000 M03
Z2 
G01 Z-0.5 F150 
X53.031 Y26.401 F75 
X53.031 Y25.998  
X50.828 Y25.998  
X50.828 Y26.401  
X51.93 Y26.401  
G00 Z5 
G90
(Sketch 104)
X51.93 Y24.401 S7000 M03
Z2 
G01 Z-0.5 F150 
X53.031 Y24.401 F75 
X53.031 Y23.998  
X50.828 Y23.998  
X50.828 Y24.401  
X51.93 Y24.401  
G00 Z5 
G90
(Sketch 105)
X51.93 Y22.401 S7000 M03
Z2 
G01 Z-0.5 F150 
X53.031 Y22.401 F75 
X53.031 Y21.998  
X50.828 Y21.998  
X50.828 Y22.401  
X51.93 Y22.401  
G00 Z5 
G90
(Sketch 106)
X51.93 Y20.401 S7000 M03
Z2 
G01 Z-0.5 F150 
X53.031 Y20.401 F75 
X53.031 Y19.998  
X50.828 Y19.998  
X50.828 Y20.401  
X51.93 Y20.401  
G00 Z5 
G90
(Sketch 107)
X54.231 Y17.3 S7000 M03
Z2 
G01 Z-0.5 F150 
X54.231 Y16.198 F75 
X53.828 Y16.198  
X53.828 Y18.401  
X54.231 Y18.401  
X54.231 Y17.3  
G00 Z5 
G90
(Sketch 108)
X56.231 Y17.3 S7000 M03
Z2 
G01 Z-0.5 F150 
X56.231 Y16.198 F75 
X55.828 Y16.198  
X55.828 Y18.401  
X56.231 Y18.401  
X56.231 Y17.3  
G00 Z5 
G90
(Sketch 109)
X58.231 Y17.3 S7000 M03
Z2 
G01 Z-0.5 F150 
X58.231 Y16.198 F75 
X57.828 Y16.198  
X57.828 Y18.401  
X58.231 Y18.401  
X58.231 Y17.3  
G00 Z5 
G90
(Sketch 110)
X60.231 Y17.3 S7000 M03
Z2 
G01 Z-0.5 F150 
X60.231 Y16.198 F75 
X59.828 Y16.198  
X59.828 Y18.401  
X60.231 Y18.401  
X60.231 Y17.3  
G00 Z5 
G90
(Sketch 111)
X62.231 Y17.3 S7000 M03
Z2 
G01 Z-0.5 F150 
X62.231 Y16.198 F75 
X61.828 Y16.198  
X61.828 Y18.401  
X62.231 Y18.401  
X62.231 Y17.3  
G00 Z5 
G90
(Sketch 112)
X64.231 Y17.3 S7000 M03
Z2 
G01 Z-0.5 F150 
X64.231 Y16.198 F75 
X63.828 Y16.198  
X63.828 Y18.401  
X64.231 Y18.401  
X64.231 Y17.3  
G00 Z5 
G90
(Sketch 113)
X66.231 Y17.3 S7000 M03
Z2 
G01 Z-0.5 F150 
X66.231 Y16.198 F75 
X65.828 Y16.198  
X65.828 Y18.401  
X66.231 Y18.401  
X66.231 Y17.3  
G00 Z5 
G90
(Sketch 114)
X68.231 Y17.3 S7000 M03
Z2 
G01 Z-0.5 F150 
X68.231 Y16.198 F75 
X67.828 Y16.198  
X67.828 Y18.401  
X68.231 Y18.401  
X68.231 Y17.3  
G00 Z5 
G90
(Sketch 115)
X67.241 Y13.97 S7000 M03
Z2 
G01 Z-0.5 F150 
X67.241 Y13.618 F75 
X66.738 Y13.618  
X66.738 Y14.321  
X67.241 Y14.321  
X67.241 Y13.97  
G00 Z5 
G90
(Sketch 116)
X65.341 Y13.97 S7000 M03
Z2 
G01 Z-0.5 F150 
X65.341 Y13.618 F75 
X64.838 Y13.618  
X64.838 Y14.321  
X65.341 Y14.321  
X65.341 Y13.97  
G00 Z5 
G90
(Sketch 117)
X67.241 Y10.16 S7000 M03
Z2 
G01 Z-0.5 F150 
X67.241 Y9.808 F75 
X66.738 Y9.808  
X66.738 Y10.511  
X67.241 Y10.511  
X67.241 Y10.16  
G00 Z5 
G90
(Sketch 118)
X65.341 Y10.16 S7000 M03
Z2 
G01 Z-0.5 F150 
X65.341 Y9.808 F75 
X64.838 Y9.808  
X64.838 Y10.511  
X65.341 Y10.511  
X65.341 Y10.16  
G00 Z5 
G90
(Sketch 119)
X60.891 Y13.97 S7000 M03
Z2 
G01 Z-0.5 F150 
X60.891 Y13.618 F75 
X60.388 Y13.618  
X60.388 Y14.321  
X60.891 Y14.321  
X60.891 Y13.97  
G00 Z5 
G90
(Sketch 120)
X58.991 Y13.97 S7000 M03
Z2 
G01 Z-0.5 F150 
X58.991 Y13.618 F75 
X58.488 Y13.618  
X58.488 Y14.321  
X58.991 Y14.321  
X58.991 Y13.97  
G00 Z5 
G90
(Sketch 121)
X60.891 Y10.16 S7000 M03
Z2 
G01 Z-0.5 F150 
X60.891 Y9.808 F75 
X60.388 Y9.808  
X60.388 Y10.511  
X60.891 Y10.511  
X60.891 Y10.16  
G00 Z5 
G90
(Sketch 122)
X58.991 Y10.16 S7000 M03
Z2 
G01 Z-0.5 F150 
X58.991 Y9.808 F75 
X58.488 Y9.808  
X58.488 Y10.511  
X58.991 Y10.511  
X58.991 Y10.16  
G00 Z5 
G90
(Sketch 123)
X55.811 Y12.7 S7000 M03
Z2 
G01 Z-0.5 F150 
X55.811 Y12.348 F75 
X55.308 Y12.348  
X55.308 Y13.051  
X55.811 Y13.051  
X55.811 Y12.7  
G00 Z5 
G90
(Sketch 124)
X53.911 Y12.7 S7000 M03
Z2 
G01 Z-0.5 F150 
X53.911 Y12.348 F75 
X53.408 Y12.348  
X53.408 Y13.051  
X53.911 Y13.051  
X53.911 Y12.7  
G00 Z5 
G90
(Sketch 125)
X8.58 Y25.4 S7000 M03
Z2 
G01 Z-0.5 F150 
X8.58 Y26.851 F75 
X9.231 Y26.851  
X9.231 Y23.948  
X8.58 Y23.948  
X8.58 Y25.4  
G00 Z5 
G90
(Sketch 128)
X22.859 Y32.835 S7000 M03
Z2 
G01 Z-0.5 F150 
X27.386 Y32.835 F75 
X18.333 Y32.835  
X22.859 Y32.835  
G00 Z5 
G90
(Sketch 129)
X22.859 Y25.585 S7000 M03
Z2 
G01 Z-0.5 F150 
X27.386 Y25.585 F75 
X18.333 Y25.585  
X22.859 Y25.585  
G00 Z5 
T0 M06 M02
